; generated by NVBOTS
; RAFT - v3.3
;X = 70.0
;Y = 80.0
;Line Temp 200
;Fill Temp 220
;Bridge Multiplier 0.7
;Offset 0.05
G21
M83
M190 V50
M190 S50
M104 T0 S200
G28 X Y
; Begin move/purge/wipe gcode
M38 Sjam
; Start move to purge gcode
G90 ; absolute
G92 E0 ; reset e
M107 ; turn part fan off
G0 X189 F10800 ;
G0 Y0
; End move to purge gcode
M109 T0 S200
; Start Purge Gcode
M107
G91
G0 E6 F100
G90
G92 E0
G10
G0 X160 F5000
G4 P1
G0 X0 F10800
G0 Y228
G92 E0
G11
; End Purge Gcode
M38 Sjam 0 T0; turn on jam detection for tool 0 with 0 millisecond timeout
; End move/purge/wipe gcode
G28 Z
M38 Sjam 20000; turn on jam detector with 20000ms timeout

;RAFT LINE LAYER NUM 1

G0 Z0.5 F200.0 ; move Z
G10 ; retract
G0 X0 Y1000 F10800.0 ; move to top left corner
M105 ; check temperatures
G4 P1 ; clear buffer
M38 Spic before_raft_line_1; take picture
G1 X59.0 Y168.0 F10800.0
G11 ; unretract!
G1 X129.0 E17.1428571429 F1225.0
G1 Y158.0 F10800.0
G1 X59.0 E17.1428571429 F1225.0
G1 Y148.0 F10800.0
G1 X129.0 E17.1428571429 F1225.0
G1 Y138.0 F10800.0
G1 X59.0 E17.1428571429 F1225.0
G1 Y128.0 F10800.0
G1 X129.0 E17.1428571429 F1225.0
G1 Y118.0 F10800.0
G1 X59.0 E17.1428571429 F1225.0
G1 Y108.0 F10800.0
G1 X129.0 E17.1428571429 F1225.0
G1 Y98.0 F10800.0
G1 X59.0 E17.1428571429 F1225.0
G1 Y88.0 F10800.0
G1 X129.0 E17.1428571429 F1225.0

;RAFT LINE LAYER NUM 2

G0 Z1.0 F200.0 ; move Z
G10 ; retract
G0 X0 Y1000 F10800.0 ; move to top left corner
M105 ; check temperatures
G4 P1 ; clear buffer
M38 Spic before_raft_line_2; take picture
G1 X59.0 Y168.0 F10800.0
G11 ; unretract!
G1 X129.0 E17.1428571429 F1225.0
G1 Y158.0 F10800.0
G1 X59.0 E17.1428571429 F1225.0
G1 Y148.0 F10800.0
G1 X129.0 E17.1428571429 F1225.0
G1 Y138.0 F10800.0
G1 X59.0 E17.1428571429 F1225.0
G1 Y128.0 F10800.0
G1 X129.0 E17.1428571429 F1225.0
G1 Y118.0 F10800.0
G1 X59.0 E17.1428571429 F1225.0
G1 Y108.0 F10800.0
G1 X129.0 E17.1428571429 F1225.0
G1 Y98.0 F10800.0
G1 X59.0 E17.1428571429 F1225.0
G1 Y88.0 F10800.0
G1 X129.0 E17.1428571429 F1225.0

;TEMP CHANGE
M104 T0 S220

;RAFT FILL LAYER NUM 1

G0 Z1.2 F200.0 ; move Z
G10 ; retract
G0 X0 Y1000 F10800.0 ; move to top left corner
M105 ; check temperatures
G4 P1 ; clear buffer
M38 Spic before_raft_fill_1; take picture
G1 X59.0 Y168.0 F10800.0
G11 ; unretract!
G0 F3828.125
G1 Y88.0 E6.2693877551
G1 X60.2 E0.0940408163265
G1 Y168.0 E6.2693877551
G1 X61.4 E0.0940408163265
G1 Y88.0 E6.2693877551
G1 X62.6 E0.0940408163265
G1 Y168.0 E6.2693877551
G1 X63.8 E0.0940408163265
G1 Y88.0 E6.2693877551
G1 X65.0 E0.0940408163265
G1 Y168.0 E6.2693877551
G1 X66.2 E0.0940408163265
G1 Y88.0 E6.2693877551
G1 X67.4 E0.0940408163265
G1 Y168.0 E6.2693877551
G1 X68.6 E0.0940408163265
G1 Y88.0 E6.2693877551
G1 X69.8 E0.0940408163265
G1 Y168.0 E6.2693877551
G1 X71.0 E0.0940408163265
G1 Y88.0 E6.2693877551
G1 X72.2 E0.0940408163265
G1 Y168.0 E6.2693877551
G1 X73.4 E0.0940408163265
G1 Y88.0 E6.2693877551
G1 X74.6 E0.0940408163265
G1 Y168.0 E6.2693877551
G1 X75.8 E0.0940408163265
G1 Y88.0 E6.2693877551
G1 X77.0 E0.0940408163265
G1 Y168.0 E6.2693877551
G1 X78.2 E0.0940408163265
G1 Y88.0 E6.2693877551
G1 X79.4 E0.0940408163265
G1 Y168.0 E6.2693877551
G1 X80.6 E0.0940408163265
G1 Y88.0 E6.2693877551
G1 X81.8 E0.0940408163265
G1 Y168.0 E6.2693877551
G1 X83.0 E0.0940408163265
G1 Y88.0 E6.2693877551
G1 X84.2 E0.0940408163265
G1 Y168.0 E6.2693877551
G1 X85.4 E0.0940408163265
G1 Y88.0 E6.2693877551
G1 X86.6 E0.0940408163265
G1 Y168.0 E6.2693877551
G1 X87.8 E0.0940408163265
G1 Y88.0 E6.2693877551
G1 X89.0 E0.0940408163265
G1 Y168.0 E6.2693877551
G1 X90.2 E0.0940408163265
G1 Y88.0 E6.2693877551
G1 X91.4 E0.0940408163265
G1 Y168.0 E6.2693877551
G1 X92.6 E0.0940408163265
G1 Y88.0 E6.2693877551
G1 X93.8 E0.0940408163265
G1 Y168.0 E6.2693877551
G1 X95.0 E0.0940408163265
G1 Y88.0 E6.2693877551
G1 X96.2 E0.0940408163265
G1 Y168.0 E6.2693877551
G1 X97.4 E0.0940408163265
G1 Y88.0 E6.2693877551
G1 X98.6 E0.0940408163265
G1 Y168.0 E6.2693877551
G1 X99.8 E0.0940408163265
G1 Y88.0 E6.2693877551
G1 X101.0 E0.0940408163265
G1 Y168.0 E6.2693877551
G1 X102.2 E0.0940408163265
G1 Y88.0 E6.2693877551
G1 X103.4 E0.0940408163265
G1 Y168.0 E6.2693877551
G1 X104.6 E0.0940408163265
G1 Y88.0 E6.2693877551
G1 X105.8 E0.0940408163265
G1 Y168.0 E6.2693877551
G1 X107.0 E0.0940408163265
G1 Y88.0 E6.2693877551
G1 X108.2 E0.0940408163265
G1 Y168.0 E6.2693877551
G1 X109.4 E0.0940408163265
G1 Y88.0 E6.2693877551
G1 X110.6 E0.0940408163265
G1 Y168.0 E6.2693877551
G1 X111.8 E0.0940408163265
G1 Y88.0 E6.2693877551
G1 X113.0 E0.0940408163265
G1 Y168.0 E6.2693877551
G1 X114.2 E0.0940408163265
G1 Y88.0 E6.2693877551
G1 X115.4 E0.0940408163265
G1 Y168.0 E6.2693877551
G1 X116.6 E0.0940408163265
G1 Y88.0 E6.2693877551
G1 X117.8 E0.0940408163265
G1 Y168.0 E6.2693877551
G1 X119.0 E0.0940408163265
G1 Y88.0 E6.2693877551
G1 X120.2 E0.0940408163265
G1 Y168.0 E6.2693877551
G1 X121.4 E0.0940408163265
G1 Y88.0 E6.2693877551
G1 X122.6 E0.0940408163265
G1 Y168.0 E6.2693877551
G1 X123.8 E0.0940408163265
G1 Y88.0 E6.2693877551
G1 X125.0 E0.0940408163265
G1 Y168.0 E6.2693877551
G1 X126.2 E0.0940408163265
G1 Y88.0 E6.2693877551
G1 X127.4 E0.0940408163265
G1 Y168.0 E6.2693877551
G1 X128.6 E0.0940408163265
G1 Y88.0 E6.2693877551

;RAFT FILL LAYER NUM 2

G0 Z1.6 F200.0 ; move Z
G10 ; retract
G0 X0 Y1000 F10800.0 ; move to top left corner
M105 ; check temperatures
G4 P1 ; clear buffer
M38 Spic before_raft_fill_2; take picture
G1 X59.0 Y168.0 F10800.0
G11 ; unretract!
G0 F3828.125
G1 X129.0 E5.48571428571
G1 Y166.8 E0.0940408163265
G1 X59.0 E5.48571428571
G1 Y165.6 E0.0940408163265
G1 X129.0 E5.48571428571
G1 Y164.4 E0.0940408163265
G1 X59.0 E5.48571428571
G1 Y163.2 E0.0940408163265
G1 X129.0 E5.48571428571
G1 Y162.0 E0.0940408163265
G1 X59.0 E5.48571428571
G1 Y160.8 E0.0940408163265
G1 X129.0 E5.48571428571
G1 Y159.6 E0.0940408163265
G1 X59.0 E5.48571428571
G1 Y158.4 E0.0940408163265
G1 X129.0 E5.48571428571
G1 Y157.2 E0.0940408163265
G1 X59.0 E5.48571428571
G1 Y156.0 E0.0940408163265
G1 X129.0 E5.48571428571
G1 Y154.8 E0.0940408163265
G1 X59.0 E5.48571428571
G1 Y153.6 E0.0940408163265
G1 X129.0 E5.48571428571
G1 Y152.4 E0.0940408163265
G1 X59.0 E5.48571428571
G1 Y151.2 E0.0940408163265
G1 X129.0 E5.48571428571
G1 Y150.0 E0.0940408163265
G1 X59.0 E5.48571428571
G1 Y148.8 E0.0940408163265
G1 X129.0 E5.48571428571
G1 Y147.6 E0.0940408163265
G1 X59.0 E5.48571428571
G1 Y146.4 E0.0940408163265
G1 X129.0 E5.48571428571
G1 Y145.2 E0.0940408163265
G1 X59.0 E5.48571428571
G1 Y144.0 E0.0940408163265
G1 X129.0 E5.48571428571
G1 Y142.8 E0.0940408163265
G1 X59.0 E5.48571428571
G1 Y141.6 E0.0940408163265
G1 X129.0 E5.48571428571
G1 Y140.4 E0.0940408163265
G1 X59.0 E5.48571428571
G1 Y139.2 E0.0940408163265
G1 X129.0 E5.48571428571
G1 Y138.0 E0.0940408163265
G1 X59.0 E5.48571428571
G1 Y136.8 E0.0940408163265
G1 X129.0 E5.48571428571
G1 Y135.6 E0.0940408163265
G1 X59.0 E5.48571428571
G1 Y134.4 E0.0940408163265
G1 X129.0 E5.48571428571
G1 Y133.2 E0.0940408163265
G1 X59.0 E5.48571428571
G1 Y132.0 E0.0940408163265
G1 X129.0 E5.48571428571
G1 Y130.8 E0.0940408163265
G1 X59.0 E5.48571428571
G1 Y129.6 E0.0940408163265
G1 X129.0 E5.48571428571
G1 Y128.4 E0.0940408163265
G1 X59.0 E5.48571428571
G1 Y127.2 E0.0940408163265
G1 X129.0 E5.48571428571
G1 Y126.0 E0.0940408163265
G1 X59.0 E5.48571428571
G1 Y124.8 E0.0940408163265
G1 X129.0 E5.48571428571
G1 Y123.6 E0.0940408163265
G1 X59.0 E5.48571428571
G1 Y122.4 E0.0940408163265
G1 X129.0 E5.48571428571
G1 Y121.2 E0.0940408163265
G1 X59.0 E5.48571428571
G1 Y120.0 E0.0940408163265
G1 X129.0 E5.48571428571
G1 Y118.8 E0.0940408163265
G1 X59.0 E5.48571428571
G1 Y117.6 E0.0940408163265
G1 X129.0 E5.48571428571
G1 Y116.4 E0.0940408163265
G1 X59.0 E5.48571428571
G1 Y115.2 E0.0940408163265
G1 X129.0 E5.48571428571
G1 Y114.0 E0.0940408163265
G1 X59.0 E5.48571428571
G1 Y112.8 E0.0940408163265
G1 X129.0 E5.48571428571
G1 Y111.6 E0.0940408163265
G1 X59.0 E5.48571428571
G1 Y110.4 E0.0940408163265
G1 X129.0 E5.48571428571
G1 Y109.2 E0.0940408163265
G1 X59.0 E5.48571428571
G1 Y108.0 E0.0940408163265
G1 X129.0 E5.48571428571
G1 Y106.8 E0.0940408163265
G1 X59.0 E5.48571428571
G1 Y105.6 E0.0940408163265
G1 X129.0 E5.48571428571
G1 Y104.4 E0.0940408163265
G1 X59.0 E5.48571428571
G1 Y103.2 E0.0940408163265
G1 X129.0 E5.48571428571
G1 Y102.0 E0.0940408163265
G1 X59.0 E5.48571428571
G1 Y100.8 E0.0940408163265
G1 X129.0 E5.48571428571
G1 Y99.6 E0.0940408163265
G1 X59.0 E5.48571428571
G1 Y98.4 E0.0940408163265
G1 X129.0 E5.48571428571
G1 Y97.2 E0.0940408163265
G1 X59.0 E5.48571428571
G1 Y96.0 E0.0940408163265
G1 X129.0 E5.48571428571
G1 Y94.8 E0.0940408163265
G1 X59.0 E5.48571428571
G1 Y93.6 E0.0940408163265
G1 X129.0 E5.48571428571
G1 Y92.4 E0.0940408163265
G1 X59.0 E5.48571428571
G1 Y91.2 E0.0940408163265
G1 X129.0 E5.48571428571
G1 Y90.0 E0.0940408163265
G1 X59.0 E5.48571428571
G1 Y88.8 E0.0940408163265
G1 X129.0 E5.48571428571

;RAFT INTERFACE LAYER NUM 1

G0 Z1.9 F200.0 ; move Z
G10 ; retract
G0 X0 Y1000 F10800.0 ; move to top left corner
M105 ; check temperatures
G4 P1 ; clear buffer
M38 Spic before_raft_interface_1; take picture
G1 X59.0 Y168.0 F10800.0
G11 ; unretract!
G0 F3402.77777778
G1 Y88.0 E7.05306122449
G1 X60.5 E0.132244897959
G1 Y168.0 E7.05306122449
G1 X62.0 E0.132244897959
G1 Y88.0 E7.05306122449
G1 X63.5 E0.132244897959
G1 Y168.0 E7.05306122449
G1 X65.0 E0.132244897959
G1 Y88.0 E7.05306122449
G1 X66.5 E0.132244897959
G1 Y168.0 E7.05306122449
G1 X68.0 E0.132244897959
G1 Y88.0 E7.05306122449
G1 X69.5 E0.132244897959
G1 Y168.0 E7.05306122449
G1 X71.0 E0.132244897959
G1 Y88.0 E7.05306122449
G1 X72.5 E0.132244897959
G1 Y168.0 E7.05306122449
G1 X74.0 E0.132244897959
G1 Y88.0 E7.05306122449
G1 X75.5 E0.132244897959
G1 Y168.0 E7.05306122449
G1 X77.0 E0.132244897959
G1 Y88.0 E7.05306122449
G1 X78.5 E0.132244897959
G1 Y168.0 E7.05306122449
G1 X80.0 E0.132244897959
G1 Y88.0 E7.05306122449
G1 X81.5 E0.132244897959
G1 Y168.0 E7.05306122449
G1 X83.0 E0.132244897959
G1 Y88.0 E7.05306122449
G1 X84.5 E0.132244897959
G1 Y168.0 E7.05306122449
G1 X86.0 E0.132244897959
G1 Y88.0 E7.05306122449
G1 X87.5 E0.132244897959
G1 Y168.0 E7.05306122449
G1 X89.0 E0.132244897959
G1 Y88.0 E7.05306122449
G1 X90.5 E0.132244897959
G1 Y168.0 E7.05306122449
G1 X92.0 E0.132244897959
G1 Y88.0 E7.05306122449
G1 X93.5 E0.132244897959
G1 Y168.0 E7.05306122449
G1 X95.0 E0.132244897959
G1 Y88.0 E7.05306122449
G1 X96.5 E0.132244897959
G1 Y168.0 E7.05306122449
G1 X98.0 E0.132244897959
G1 Y88.0 E7.05306122449
G1 X99.5 E0.132244897959
G1 Y168.0 E7.05306122449
G1 X101.0 E0.132244897959
G1 Y88.0 E7.05306122449
G1 X102.5 E0.132244897959
G1 Y168.0 E7.05306122449
G1 X104.0 E0.132244897959
G1 Y88.0 E7.05306122449
G1 X105.5 E0.132244897959
G1 Y168.0 E7.05306122449
G1 X107.0 E0.132244897959
G1 Y88.0 E7.05306122449
G1 X108.5 E0.132244897959
G1 Y168.0 E7.05306122449
G1 X110.0 E0.132244897959
G1 Y88.0 E7.05306122449
G1 X111.5 E0.132244897959
G1 Y168.0 E7.05306122449
G1 X113.0 E0.132244897959
G1 Y88.0 E7.05306122449
G1 X114.5 E0.132244897959
G1 Y168.0 E7.05306122449
G1 X116.0 E0.132244897959
G1 Y88.0 E7.05306122449
G1 X117.5 E0.132244897959
G1 Y168.0 E7.05306122449
G1 X119.0 E0.132244897959
G1 Y88.0 E7.05306122449
G1 X120.5 E0.132244897959
G1 Y168.0 E7.05306122449
G1 X122.0 E0.132244897959
G1 Y88.0 E7.05306122449
G1 X123.5 E0.132244897959
G1 Y168.0 E7.05306122449
G1 X125.0 E0.132244897959
G1 Y88.0 E7.05306122449
G1 X126.5 E0.132244897959
G1 Y168.0 E7.05306122449
G1 X128.0 E0.132244897959
G1 Y88.0 E7.05306122449
M206 Z0
M500
G91
G0 Z0.050000 F200.0
G90
G92 Z0
G10
G11; backlash compensation
; END RAFT

; begin Slic3r start gcode
M38 Sjam ; Turn off jam detection
G91
G0 E-3 F1000
G90
; Begin move/purge/wipe gcode
M38 Sjam
; Start move to purge gcode
G90 ; absolute
G92 E0 ; reset e
M107 ; turn part fan off
G0 X189 F10800 ;
G0 Y0
; End move to purge gcode
M109 T0 S190
; Start Purge Gcode
M107
G91
G0 E6 F100
G90
G92 E0
G10
G0 X160 F5000
G4 P1
G0 X0 F10800
G0 Y228
G92 E0
G11
; End Purge Gcode
M38 Sjam 28571 T0; turn on jam detection for tool 0 with 28571 millisecond timeout
; End move/purge/wipe gcode

M106 S255; first layer fan
; finish Slic3r start gcode
G21 ; set units to millimeters
G90 ; use absolute coordinates
M83 ; use relative distances for extrusion
G10 ; retract
G1 Z0.300 F12000.000
M92 E340.298
;$ layer 0
G0 X0 Y230 F10800;
G4 P1
M38 Spic 0; take picture and tag layer number
M105; check temperatures
G1 X85.221 Y119.700 F12000.000
G11 ; unretract
M204 S500
G1 X85.221 Y99.371 E1.20596 F1200.000
G1 X102.779 Y99.371 E1.04155
G1 X102.779 Y119.221 E1.17754
G1 X122.629 Y119.221 E1.17754
G1 X122.629 Y136.779 E1.04155
G1 X102.779 Y136.779 E1.17754
G1 X102.779 Y156.629 E1.17754
G1 X85.221 Y156.629 E1.04155
G1 X85.221 Y136.300 E1.20596
G1 X65.700 Y136.300 E1.15802
G1 X65.700 Y119.700 E0.98470
G1 X85.161 Y119.700 E1.15446
M204 S3000
G1 X84.746 Y119.225 F12000.000
M204 S500
G1 X84.746 Y98.896 E1.20596 F1200.000
G1 X103.254 Y98.896 E1.09797
G1 X103.254 Y118.746 E1.17754
G1 X123.104 Y118.746 E1.17754
G1 X123.104 Y137.254 E1.09797
G1 X103.254 Y137.254 E1.17754
G1 X103.254 Y157.104 E1.17754
G1 X84.746 Y157.104 E1.09797
G1 X84.746 Y136.775 E1.20596
G1 X65.225 Y136.775 E1.15802
G1 X65.225 Y119.225 E1.04113
G1 X84.686 Y119.225 E1.15446
M204 S3000
G1 X84.270 Y118.749 F12000.000
M204 S500
G1 X84.270 Y98.420 E1.20596 F1200.000
G1 X103.730 Y98.420 E1.15440
G1 X103.730 Y118.270 E1.17754
G1 X123.580 Y118.270 E1.17754
G1 X123.580 Y137.730 E1.15440
G1 X103.730 Y137.730 E1.17754
G1 X103.730 Y157.580 E1.17754
G1 X84.270 Y157.580 E1.15440
G1 X84.270 Y137.251 E1.20596
G1 X64.749 Y137.251 E1.15802
G1 X64.749 Y118.749 E1.09756
G1 X84.210 Y118.749 E1.15446
M204 S3000
G1 X84.670 Y118.749 F12000.000
G1 X85.505 Y119.505 F12000.000
M204 S500
G1 X102.495 Y136.495 E1.43630 F1200.000
G1 X103.173 Y136.495 E0.04051
G1 X85.505 Y118.827 E1.49359
G1 X85.505 Y118.149 E0.04051
G1 X103.851 Y136.495 E1.55088
G1 X104.529 Y136.495 E0.04051
G1 X85.505 Y117.471 E1.60818
G1 X85.505 Y116.794 E0.04051
G1 X105.206 Y136.495 E1.66547
G1 X105.884 Y136.495 E0.04051
G1 X85.505 Y116.116 E1.72277
G1 X85.505 Y115.438 E0.04051
G1 X106.562 Y136.495 E1.78006
G1 X107.240 Y136.495 E0.04051
G1 X85.505 Y114.760 E1.83735
G1 X85.505 Y114.083 E0.04051
G1 X107.917 Y136.495 E1.89465
G1 X108.595 Y136.495 E0.04051
G1 X85.505 Y113.405 E1.95194
G1 X85.505 Y112.727 E0.04051
G1 X109.273 Y136.495 E2.00923
G1 X109.951 Y136.495 E0.04051
G1 X85.505 Y112.049 E2.06653
G1 X85.505 Y111.372 E0.04051
G1 X110.628 Y136.495 E2.12382
G1 X111.306 Y136.495 E0.04051
G1 X85.505 Y110.694 E2.18112
G1 X85.505 Y110.016 E0.04051
G1 X111.984 Y136.495 E2.23841
G1 X112.662 Y136.495 E0.04051
G1 X85.505 Y109.338 E2.29570
G1 X85.505 Y108.660 E0.04051
G1 X113.340 Y136.495 E2.35300
G1 X114.017 Y136.495 E0.04051
G1 X85.505 Y107.983 E2.41029
G1 X85.505 Y107.305 E0.04051
G1 X114.695 Y136.495 E2.46758
G1 X115.373 Y136.495 E0.04051
G1 X85.505 Y106.627 E2.52488
G1 X85.505 Y105.949 E0.04051
G1 X116.051 Y136.495 E2.58217
G1 X116.728 Y136.495 E0.04051
G1 X85.505 Y105.272 E2.63947
G1 X85.505 Y104.594 E0.04051
G1 X117.406 Y136.495 E2.69676
G1 X118.084 Y136.495 E0.04051
G1 X85.505 Y103.916 E2.75405
G1 X85.505 Y103.238 E0.04051
G1 X118.762 Y136.495 E2.81135
M204 S3000
G1 X122.104 Y119.505 F12000.000
M204 S500
G1 X122.345 Y119.746 E0.02044 F1200.000
G1 X122.345 Y120.424 E0.04051
G1 X121.426 Y119.505 E0.07773
G1 X120.748 Y119.505 E0.04051
G1 X122.345 Y121.102 E0.13503
G1 X122.345 Y121.780 E0.04051
G1 X120.070 Y119.505 E0.19232
G1 X119.393 Y119.505 E0.04051
G1 X122.345 Y122.457 E0.24961
G1 X122.345 Y123.135 E0.04051
G1 X118.715 Y119.505 E0.30691
G1 X118.037 Y119.505 E0.04051
G1 X122.345 Y123.813 E0.36420
G1 X122.345 Y124.491 E0.04051
G1 X117.359 Y119.505 E0.42150
G1 X116.682 Y119.505 E0.04051
G1 X122.345 Y125.168 E0.47879
G1 X122.345 Y125.846 E0.04051
G1 X116.004 Y119.505 E0.53608
G1 X115.326 Y119.505 E0.04051
G1 X122.345 Y126.524 E0.59338
G1 X122.345 Y127.202 E0.04051
G1 X114.648 Y119.505 E0.65067
G1 X113.970 Y119.505 E0.04051
G1 X122.345 Y127.880 E0.70796
