; generated by NVBOTS
; RAFT - v3.3
;X = 70.0
;Y = 80.0
;Line Temp 200
;Fill Temp 220
;Bridge Multiplier 0.7
;Offset 0.05
G21
M83
M190 V50
M190 S50
M104 S200 T0
G28 Y X
; Begin move/purge/wipe gcode
M38 Sjam
; Start move to purge gcode
G90 ; absolute
G92 E0 ; reset e
M107 ; turn part fan off
G0 X189 F10800
G0 Y0
; End move to purge gcode
M109 S200 T0
; Start Purge Gcode
M107
G91
G0 E6 F100
G90
G92 E0
G10
G0 X160 F5000
G4 P1
G0 X0 F10800
G0 Y228
G92 E0
G11
; End Purge Gcode
M38 Sjam 0 T0 ; turn on jam detection for tool 0 with 0 millisecond timeout
; End move/purge/wipe gcode
G28 Z
M38 Sjam 20000 ; turn on jam detector with 20000ms timeout
;RAFT LINE LAYER NUM 1
G0 Z0.5 F200.0 ; move Z
G10 ; retract
G0 Y1000 X0 Z0.5 F10800.0 ; move to top left corner
M105 ; check temperatures
G4 P1 ; clear buffer
M38 Spic before_raft_line_1 ; take picture
G1 Y168.0 X59.0 Z0.168769243543 F10800.0
G11 ; unretract!
G1 X129.0 Z0.5 E17.1428571429 F1225.0
G1 Y158.0 Z0.5 F10800.0
G1 X59.0 Z0.5 E17.1428571429 F1225.0
G1 Y148.0 Z0.5 F10800.0
G1 X129.0 Z0.5 E17.1428571429 F1225.0
G1 Y138.0 Z0.5 F10800.0
G1 X59.0 Z0.5 E17.1428571429 F1225.0
G1 Y128.0 Z0.5 F10800.0
G1 X129.0 Z0.5 E17.1428571429 F1225.0
G1 Y118.0 Z0.5 F10800.0
G1 X59.0 Z0.5 E17.1428571429 F1225.0
G1 Y108.0 Z0.5 F10800.0
G1 X129.0 Z0.5 E17.1428571429 F1225.0
G1 Y98.0 Z0.5 F10800.0
G1 X59.0 Z0.5 E17.1428571429 F1225.0
G1 Y88.0 Z0.5 F10800.0
G1 X129.0 Z0.5 E17.1428571429 F1225.0
;RAFT LINE LAYER NUM 2
G0 Z1.0 F200.0 ; move Z
G10 ; retract
G0 Y1000 X0 Z1.0 F10800.0 ; move to top left corner
M105 ; check temperatures
G4 P1 ; clear buffer
M38 Spic before_raft_line_2 ; take picture
G1 Y168.0 X59.0 Z0.680069752524 F10800.0
G11 ; unretract!
G1 X129.0 Z1.0 E17.1428571429 F1225.0
G1 Y158.0 Z1.0 F10800.0
G1 X59.0 Z1.0 E17.1428571429 F1225.0
G1 Y148.0 Z1.0 F10800.0
G1 X129.0 Z1.0 E17.1428571429 F1225.0
G1 Y138.0 Z1.0 F10800.0
G1 X59.0 Z1.0 E17.1428571429 F1225.0
G1 Y128.0 Z1.0 F10800.0
G1 X129.0 Z1.0 E17.1428571429 F1225.0
G1 Y118.0 Z1.0 F10800.0
G1 X59.0 Z1.0 E17.1428571429 F1225.0
G1 Y108.0 Z1.0 F10800.0
G1 X129.0 Z1.0 E17.1428571429 F1225.0
G1 Y98.0 Z1.0 F10800.0
G1 X59.0 Z1.0 E17.1428571429 F1225.0
G1 Y88.0 Z1.0 F10800.0
G1 X129.0 Z1.0 E17.1428571429 F1225.0
;TEMP CHANGE
M104 S220 T0
;RAFT FILL LAYER NUM 1
G0 Z1.2 F200.0 ; move Z
G10 ; retract
G0 Y1000 X0 Z1.2 F10800.0 ; move to top left corner
M105 ; check temperatures
G4 P1 ; clear buffer
M38 Spic before_raft_fill_1 ; take picture
G1 Y168.0 X59.0 Z0.884534451998 F10800.0
G11 ; unretract!
G0 Z1.2 F3828.125
G1 Y88.0 Z1.2 E6.2693877551
G1 X60.2 Z1.2 E0.0940408163265
G1 Y168.0 Z1.2 E6.2693877551
G1 X61.4 Z1.2 E0.0940408163265
G1 Y88.0 Z1.2 E6.2693877551
G1 X62.6 Z1.2 E0.0940408163265
G1 Y168.0 Z1.2 E6.2693877551
G1 X63.8 Z1.2 E0.0940408163265
G1 Y88.0 Z1.2 E6.2693877551
G1 X65.0 Z1.2 E0.0940408163265
G1 Y168.0 Z1.2 E6.2693877551
G1 X66.2 Z1.2 E0.0940408163265
G1 Y88.0 Z1.2 E6.2693877551
G1 X67.4 Z1.2 E0.0940408163265
G1 Y168.0 Z1.2 E6.2693877551
G1 X68.6 Z1.2 E0.0940408163265
G1 Y88.0 Z1.2 E6.2693877551
G1 X69.8 Z1.2 E0.0940408163265
G1 Y168.0 Z1.2 E6.2693877551
G1 X71.0 Z1.2 E0.0940408163265
G1 Y88.0 Z1.2 E6.2693877551
G1 X72.2 Z1.2 E0.0940408163265
G1 Y168.0 Z1.2 E6.2693877551
G1 X73.4 Z1.2 E0.0940408163265
G1 Y88.0 Z1.2 E6.2693877551
G1 X74.6 Z1.2 E0.0940408163265
G1 Y168.0 Z1.2 E6.2693877551
G1 X75.8 Z1.2 E0.0940408163265
G1 Y88.0 Z1.2 E6.2693877551
G1 X77.0 Z1.2 E0.0940408163265
G1 Y168.0 Z1.2 E6.2693877551
G1 X78.2 Z1.2 E0.0940408163265
G1 Y88.0 Z1.2 E6.2693877551
G1 X79.4 Z1.2 E0.0940408163265
G1 Y168.0 Z1.2 E6.2693877551
G1 X80.6 Z1.2 E0.0940408163265
G1 Y88.0 Z1.2 E6.2693877551
G1 X81.8 Z1.2 E0.0940408163265
G1 Y168.0 Z1.2 E6.2693877551
G1 X83.0 Z1.2 E0.0940408163265
G1 Y88.0 Z1.2 E6.2693877551
G1 X84.2 Z1.2 E0.0940408163265
G1 Y168.0 Z1.2 E6.2693877551
G1 X85.4 Z1.2 E0.0940408163265
G1 Y88.0 Z1.2 E6.2693877551
G1 X86.6 Z1.2 E0.0940408163265
G1 Y168.0 Z1.2 E6.2693877551
G1 X87.8 Z1.2 E0.0940408163265
G1 Y88.0 Z1.2 E6.2693877551
G1 X89.0 Z1.2 E0.0940408163265
G1 Y168.0 Z1.2 E6.2693877551
G1 X90.2 Z1.2 E0.0940408163265
G1 Y88.0 Z1.2 E6.2693877551
G1 X91.4 Z1.2 E0.0940408163265
G1 Y168.0 Z1.2 E6.2693877551
G1 X92.6 Z1.2 E0.0940408163265
G1 Y88.0 Z1.2 E6.2693877551
G1 X93.8 Z1.2 E0.0940408163265
G1 Y168.0 Z1.2 E6.2693877551
G1 X95.0 Z1.2 E0.0940408163265
G1 Y88.0 Z1.2 E6.2693877551
G1 X96.2 Z1.2 E0.0940408163265
G1 Y168.0 Z1.2 E6.2693877551
G1 X97.4 Z1.2 E0.0940408163265
G1 Y88.0 Z1.2 E6.2693877551
G1 X98.6 Z1.2 E0.0940408163265
G1 Y168.0 Z1.2 E6.2693877551
G1 X99.8 Z1.2 E0.0940408163265
G1 Y88.0 Z1.2 E6.2693877551
G1 X101.0 Z1.2 E0.0940408163265
G1 Y168.0 Z1.2 E6.2693877551
G1 X102.2 Z1.2 E0.0940408163265
G1 Y88.0 Z1.2 E6.2693877551
G1 X103.4 Z1.2 E0.0940408163265
G1 Y168.0 Z1.2 E6.2693877551
G1 X104.6 Z1.2 E0.0940408163265
G1 Y88.0 Z1.2 E6.2693877551
G1 X105.8 Z1.2 E0.0940408163265
G1 Y168.0 Z1.2 E6.2693877551
G1 X107.0 Z1.2 E0.0940408163265
G1 Y88.0 Z1.2 E6.2693877551
G1 X108.2 Z1.2 E0.0940408163265
G1 Y168.0 Z1.2 E6.2693877551
G1 X109.4 Z1.2 E0.0940408163265
G1 Y88.0 Z1.2 E6.2693877551
G1 X110.6 Z1.2 E0.0940408163265
G1 Y168.0 Z1.2 E6.2693877551
G1 X111.8 Z1.2 E0.0940408163265
G1 Y88.0 Z1.2 E6.2693877551
G1 X113.0 Z1.2 E0.0940408163265
G1 Y168.0 Z1.2 E6.2693877551
G1 X114.2 Z1.2 E0.0940408163265
G1 Y88.0 Z1.2 E6.2693877551
G1 X115.4 Z1.2 E0.0940408163265
G1 Y168.0 Z1.2 E6.2693877551
G1 X116.6 Z1.2 E0.0940408163265
G1 Y88.0 Z1.2 E6.2693877551
G1 X117.8 Z1.2 E0.0940408163265
G1 Y168.0 Z1.2 E6.2693877551
G1 X119.0 Z1.2 E0.0940408163265
G1 Y88.0 Z1.2 E6.2693877551
G1 X120.2 Z1.2 E0.0940408163265
G1 Y168.0 Z1.2 E6.2693877551
G1 X121.4 Z1.2 E0.0940408163265
G1 Y88.0 Z1.2 E6.2693877551
G1 X122.6 Z1.2 E0.0940408163265
G1 Y168.0 Z1.2 E6.2693877551
G1 X123.8 Z1.2 E0.0940408163265
G1 Y88.0 Z1.2 E6.2693877551
G1 X125.0 Z1.2 E0.0940408163265
G1 Y168.0 Z1.2 E6.2693877551
G1 X126.2 Z1.2 E0.0940408163265
G1 Y88.0 Z1.2 E6.2693877551
G1 X127.4 Z1.2 E0.0940408163265
G1 Y168.0 Z1.2 E6.2693877551
G1 X128.6 Z1.2 E0.0940408163265
G1 Y88.0 Z1.2 E6.2693877551
;RAFT FILL LAYER NUM 2
G0 Z1.6 F200.0 ; move Z
G10 ; retract
G0 Y1000 X0 Z1.6 F10800.0 ; move to top left corner
M105 ; check temperatures
G4 P1 ; clear buffer
M38 Spic before_raft_fill_2 ; take picture
G1 Y168.0 X59.0 Z1.29336934527 F10800.0
G11 ; unretract!
G0 Z1.6 F3828.125
G1 X129.0 Z1.6 E5.48571428571
G1 Y166.8 Z1.6 E0.0940408163265
G1 X59.0 Z1.6 E5.48571428571
G1 Y165.6 Z1.6 E0.0940408163265
G1 X129.0 Z1.6 E5.48571428571
G1 Y164.4 Z1.6 E0.0940408163265
G1 X59.0 Z1.6 E5.48571428571
G1 Y163.2 Z1.6 E0.0940408163265
G1 X129.0 Z1.6 E5.48571428571
G1 Y162.0 Z1.6 E0.0940408163265
G1 X59.0 Z1.6 E5.48571428571
G1 Y160.8 Z1.6 E0.0940408163265
G1 X129.0 Z1.6 E5.48571428571
G1 Y159.6 Z1.6 E0.0940408163265
G1 X59.0 Z1.6 E5.48571428571
G1 Y158.4 Z1.6 E0.0940408163265
G1 X129.0 Z1.6 E5.48571428571
G1 Y157.2 Z1.6 E0.0940408163265
G1 X59.0 Z1.6 E5.48571428571
G1 Y156.0 Z1.6 E0.0940408163265
G1 X129.0 Z1.6 E5.48571428571
G1 Y154.8 Z1.6 E0.0940408163265
G1 X59.0 Z1.6 E5.48571428571
G1 Y153.6 Z1.6 E0.0940408163265
G1 X129.0 Z1.6 E5.48571428571
G1 Y152.4 Z1.6 E0.0940408163265
G1 X59.0 Z1.6 E5.48571428571
G1 Y151.2 Z1.6 E0.0940408163265
G1 X129.0 Z1.6 E5.48571428571
G1 Y150.0 Z1.6 E0.0940408163265
G1 X59.0 Z1.6 E5.48571428571
G1 Y148.8 Z1.6 E0.0940408163265
G1 X129.0 Z1.6 E5.48571428571
G1 Y147.6 Z1.6 E0.0940408163265
G1 X59.0 Z1.6 E5.48571428571
G1 Y146.4 Z1.6 E0.0940408163265
G1 X129.0 Z1.6 E5.48571428571
G1 Y145.2 Z1.6 E0.0940408163265
G1 X59.0 Z1.6 E5.48571428571
G1 Y144.0 Z1.6 E0.0940408163265
G1 X129.0 Z1.6 E5.48571428571
G1 Y142.8 Z1.6 E0.0940408163265
G1 X59.0 Z1.6 E5.48571428571
G1 Y141.6 Z1.6 E0.0940408163265
G1 X129.0 Z1.6 E5.48571428571
G1 Y140.4 Z1.6 E0.0940408163265
G1 X59.0 Z1.6 E5.48571428571
G1 Y139.2 Z1.6 E0.0940408163265
G1 X129.0 Z1.6 E5.48571428571
G1 Y138.0 Z1.6 E0.0940408163265
G1 X59.0 Z1.6 E5.48571428571
G1 Y136.8 Z1.6 E0.0940408163265
G1 X129.0 Z1.6 E5.48571428571
G1 Y135.6 Z1.6 E0.0940408163265
G1 X59.0 Z1.6 E5.48571428571
G1 Y134.4 Z1.6 E0.0940408163265
G1 X129.0 Z1.6 E5.48571428571
G1 Y133.2 Z1.6 E0.0940408163265
G1 X59.0 Z1.6 E5.48571428571
G1 Y132.0 Z1.6 E0.0940408163265
G1 X129.0 Z1.6 E5.48571428571
G1 Y130.8 Z1.6 E0.0940408163265
G1 X59.0 Z1.6 E5.48571428571
G1 Y129.6 Z1.6 E0.0940408163265
G1 X129.0 Z1.6 E5.48571428571
G1 Y128.4 Z1.6 E0.0940408163265
G1 X59.0 Z1.6 E5.48571428571
G1 Y127.2 Z1.6 E0.0940408163265
G1 X129.0 Z1.6 E5.48571428571
G1 Y126.0 Z1.6 E0.0940408163265
G1 X59.0 Z1.6 E5.48571428571
G1 Y124.8 Z1.6 E0.0940408163265
G1 X129.0 Z1.6 E5.48571428571
G1 Y123.6 Z1.6 E0.0940408163265
G1 X59.0 Z1.6 E5.48571428571
G1 Y122.4 Z1.6 E0.0940408163265
G1 X129.0 Z1.6 E5.48571428571
G1 Y121.2 Z1.6 E0.0940408163265
G1 X59.0 Z1.6 E5.48571428571
G1 Y120.0 Z1.6 E0.0940408163265
G1 X129.0 Z1.6 E5.48571428571
G1 Y118.8 Z1.6 E0.0940408163265
G1 X59.0 Z1.6 E5.48571428571
G1 Y117.6 Z1.6 E0.0940408163265
G1 X129.0 Z1.6 E5.48571428571
G1 Y116.4 Z1.6 E0.0940408163265
G1 X59.0 Z1.6 E5.48571428571
G1 Y115.2 Z1.6 E0.0940408163265
G1 X129.0 Z1.6 E5.48571428571
G1 Y114.0 Z1.6 E0.0940408163265
G1 X59.0 Z1.6 E5.48571428571
G1 Y112.8 Z1.6 E0.0940408163265
G1 X129.0 Z1.6 E5.48571428571
G1 Y111.6 Z1.6 E0.0940408163265
G1 X59.0 Z1.6 E5.48571428571
G1 Y110.4 Z1.6 E0.0940408163265
G1 X129.0 Z1.6 E5.48571428571
G1 Y109.2 Z1.6 E0.0940408163265
G1 X59.0 Z1.6 E5.48571428571
G1 Y108.0 Z1.6 E0.0940408163265
G1 X129.0 Z1.6 E5.48571428571
G1 Y106.8 Z1.6 E0.0940408163265
G1 X59.0 Z1.6 E5.48571428571
G1 Y105.6 Z1.6 E0.0940408163265
G1 X129.0 Z1.6 E5.48571428571
G1 Y104.4 Z1.6 E0.0940408163265
G1 X59.0 Z1.6 E5.48571428571
G1 Y103.2 Z1.6 E0.0940408163265
G1 X129.0 Z1.6 E5.48571428571
G1 Y102.0 Z1.6 E0.0940408163265
G1 X59.0 Z1.6 E5.48571428571
G1 Y100.8 Z1.6 E0.0940408163265
G1 X129.0 Z1.6 E5.48571428571
G1 Y99.6 Z1.6 E0.0940408163265
G1 X59.0 Z1.6 E5.48571428571
G1 Y98.4 Z1.6 E0.0940408163265
G1 X129.0 Z1.6 E5.48571428571
G1 Y97.2 Z1.6 E0.0940408163265
G1 X59.0 Z1.6 E5.48571428571
G1 Y96.0 Z1.6 E0.0940408163265
G1 X129.0 Z1.6 E5.48571428571
G1 Y94.8 Z1.6 E0.0940408163265
G1 X59.0 Z1.6 E5.48571428571
G1 Y93.6 Z1.6 E0.0940408163265
G1 X129.0 Z1.6 E5.48571428571
G1 Y92.4 Z1.6 E0.0940408163265
G1 X59.0 Z1.6 E5.48571428571
G1 Y91.2 Z1.6 E0.0940408163265
G1 X129.0 Z1.6 E5.48571428571
G1 Y90.0 Z1.6 E0.0940408163265
G1 X59.0 Z1.6 E5.48571428571
G1 Y88.8 Z1.6 E0.0940408163265
G1 X129.0 Z1.6 E5.48571428571
;RAFT INTERFACE LAYER NUM 1
G0 Z1.9 F200.0 ; move Z
G10 ; retract
G0 Y1000 X0 Z1.9 F10800.0 ; move to top left corner
M105 ; check temperatures
G4 P1 ; clear buffer
M38 Spic before_raft_interface_1 ; take picture
G1 Y168.0 X59.0 Z1.59991328399 F10800.0
G11 ; unretract!
G0 Z1.9 F3402.77777778
G1 Y88.0 Z1.9 E7.05306122449
G1 X60.5 Z1.9 E0.132244897959
G1 Y168.0 Z1.9 E7.05306122449
G1 X62.0 Z1.9 E0.132244897959
G1 Y88.0 Z1.9 E7.05306122449
G1 X63.5 Z1.9 E0.132244897959
G1 Y168.0 Z1.9 E7.05306122449
G1 X65.0 Z1.9 E0.132244897959
G1 Y88.0 Z1.9 E7.05306122449
G1 X66.5 Z1.9 E0.132244897959
G1 Y168.0 Z1.9 E7.05306122449
G1 X68.0 Z1.9 E0.132244897959
G1 Y88.0 Z1.9 E7.05306122449
G1 X69.5 Z1.9 E0.132244897959
G1 Y168.0 Z1.9 E7.05306122449
G1 X71.0 Z1.9 E0.132244897959
G1 Y88.0 Z1.9 E7.05306122449
G1 X72.5 Z1.9 E0.132244897959
G1 Y168.0 Z1.9 E7.05306122449
G1 X74.0 Z1.9 E0.132244897959
G1 Y88.0 Z1.9 E7.05306122449
G1 X75.5 Z1.9 E0.132244897959
G1 Y168.0 Z1.9 E7.05306122449
G1 X77.0 Z1.9 E0.132244897959
G1 Y88.0 Z1.9 E7.05306122449
G1 X78.5 Z1.9 E0.132244897959
G1 Y168.0 Z1.9 E7.05306122449
G1 X80.0 Z1.9 E0.132244897959
G1 Y88.0 Z1.9 E7.05306122449
G1 X81.5 Z1.9 E0.132244897959
G1 Y168.0 Z1.9 E7.05306122449
G1 X83.0 Z1.9 E0.132244897959
G1 Y88.0 Z1.9 E7.05306122449
G1 X84.5 Z1.9 E0.132244897959
G1 Y168.0 Z1.9 E7.05306122449
G1 X86.0 Z1.9 E0.132244897959
G1 Y88.0 Z1.9 E7.05306122449
G1 X87.5 Z1.9 E0.132244897959
G1 Y168.0 Z1.9 E7.05306122449
G1 X89.0 Z1.9 E0.132244897959
G1 Y88.0 Z1.9 E7.05306122449
G1 X90.5 Z1.9 E0.132244897959
G1 Y168.0 Z1.9 E7.05306122449
G1 X92.0 Z1.9 E0.132244897959
G1 Y88.0 Z1.9 E7.05306122449
G1 X93.5 Z1.9 E0.132244897959
G1 Y168.0 Z1.9 E7.05306122449
G1 X95.0 Z1.9 E0.132244897959
G1 Y88.0 Z1.9 E7.05306122449
G1 X96.5 Z1.9 E0.132244897959
G1 Y168.0 Z1.9 E7.05306122449
G1 X98.0 Z1.9 E0.132244897959
G1 Y88.0 Z1.9 E7.05306122449
G1 X99.5 Z1.9 E0.132244897959
G1 Y168.0 Z1.9 E7.05306122449
G1 X101.0 Z1.9 E0.132244897959
G1 Y88.0 Z1.9 E7.05306122449
G1 X102.5 Z1.9 E0.132244897959
G1 Y168.0 Z1.9 E7.05306122449
G1 X104.0 Z1.9 E0.132244897959
G1 Y88.0 Z1.9 E7.05306122449
G1 X105.5 Z1.9 E0.132244897959
G1 Y168.0 Z1.9 E7.05306122449
G1 X107.0 Z1.9 E0.132244897959
G1 Y88.0 Z1.9 E7.05306122449
G1 X108.5 Z1.9 E0.132244897959
G1 Y168.0 Z1.9 E7.05306122449
G1 X110.0 Z1.9 E0.132244897959
G1 Y88.0 Z1.9 E7.05306122449
G1 X111.5 Z1.9 E0.132244897959
G1 Y168.0 Z1.9 E7.05306122449
G1 X113.0 Z1.9 E0.132244897959
G1 Y88.0 Z1.9 E7.05306122449
G1 X114.5 Z1.9 E0.132244897959
G1 Y168.0 Z1.9 E7.05306122449
G1 X116.0 Z1.9 E0.132244897959
G1 Y88.0 Z1.9 E7.05306122449
G1 X117.5 Z1.9 E0.132244897959
G1 Y168.0 Z1.9 E7.05306122449
G1 X119.0 Z1.9 E0.132244897959
G1 Y88.0 Z1.9 E7.05306122449
G1 X120.5 Z1.9 E0.132244897959
G1 Y168.0 Z1.9 E7.05306122449
G1 X122.0 Z1.9 E0.132244897959
G1 Y88.0 Z1.9 E7.05306122449
G1 X123.5 Z1.9 E0.132244897959
G1 Y168.0 Z1.9 E7.05306122449
G1 X125.0 Z1.9 E0.132244897959
G1 Y88.0 Z1.9 E7.05306122449
G1 X126.5 Z1.9 E0.132244897959
G1 Y168.0 Z1.9 E7.05306122449
G1 X128.0 Z1.9 E0.132244897959
G1 Y88.0 Z1.9 E7.05306122449
M206 Z0
M500
G91
G0 Z0.05 F200.0
G90
G92 Z0
G10
G11 ; backlash compensation
; END RAFT
; begin Slic3r start gcode
M38 Sjam  ; Turn off jam detection
G91
G0 Z0.05 E-3 F1000
G90
; Begin move/purge/wipe gcode
M38 Sjam
; Start move to purge gcode
G90 ; absolute
G92 E0 ; reset e
M107 ; turn part fan off
G0 X189 Z0.05 F10800
G0 Y0 Z0.05
; End move to purge gcode
M109 S190 T0
; Start Purge Gcode
M107
G91
G0 Z0.05 E6 F100
G90
G92 E0
G10
G0 X160 Z0.05 F5000
G4 P1
G0 X0 Z0.05 F10800
G0 Y228 Z0.05
G92 E0
G11
; End Purge Gcode
M38 Sjam 28571 T0 ; turn on jam detection for tool 0 with 28571 millisecond timeout
; End move/purge/wipe gcode
M106 S255 ; first layer fan
; finish Slic3r start gcode
G21 ; set units to millimeters
G90 ; use absolute coordinates
M83 ; use relative distances for extrusion
G10 ; retract
G1 Z0.3 F12000.0
M92 E340.298
;$ layer 0
G0 Y230 X0 Z0.3 F10800
G4 P1
M38 Spic 0 ; take picture and tag layer number
M105 ; check temperatures
G1 Y119.7 X85.221 Z-0.0787968210417 F12000.0
G11 ; unretract
M204 S500
G1 Y99.371 X85.221 Z-0.0281477261586 E1.20596 F1200.0
G1 Y99.371 X102.779 Z-0.0671881024305 E1.04155
G1 Y119.221 X102.779 Z-0.118279065585 E1.17754
G1 Y119.221 X122.629 Z-0.145587720259 E1.17754
G1 Y136.779 X122.629 Z-0.165380503396 E1.04155
G1 Y136.779 X102.779 Z-0.144116241832 E1.17754
G1 Y156.629 X102.779 Z-0.151445138401 E1.17754
G1 Y156.629 X85.221 Z-0.119593170855 E1.04155
G1 Y136.3 X85.221 Z-0.105308302092 E1.20596
G1 Y136.3 X65.7 Z-0.0413570879658 E1.15802
G1 Y119.7 X65.7 Z-0.0158023815092 E0.9847
G1 Y119.7 X85.161 Z-0.0786323127663 E1.15446
M204 S3000
G1 Y119.225 X84.746 Z-0.0765351510231 F12000.0
M204 S500
G1 Y98.896 X84.746 Z-0.0255060522208 E1.20596 F1200.0
G1 Y98.896 X103.254 Z-0.0665699125721 E1.09797
G1 Y118.746 X103.254 Z-0.118210918442 E1.17754
G1 Y118.746 X123.104 Z-0.145167014472 E1.17754
G1 Y137.254 X123.104 Z-0.165829563279 E1.09797
G1 Y137.254 X103.254 Z-0.145339995771 E1.17754
G1 Y157.104 X103.254 Z-0.151891359144 E1.17754
G1 Y157.104 X84.746 Z-0.118530566443 E1.09797
G1 Y136.775 X84.746 Z-0.104582502325 E1.20596
G1 Y136.775 X65.225 Z-0.0401025924959 E1.15802
G1 Y119.225 X65.225 Z-0.0131554492688 E1.04113
G1 Y119.225 X84.686 Z-0.0763693074798 E1.15446
M204 S3000
G1 Y118.749 X84.27 Z-0.0742480137315 F12000.0
M204 S500
G1 Y98.42 X84.27 Z-0.0228461197274 E1.20596 F1200.0
G1 Y98.42 X103.73 Z-0.065925941039 E1.1544
G1 Y118.27 X103.73 Z-0.118121071053 E1.17754
G1 Y118.27 X123.58 Z-0.14472607692 E1.17754
G1 Y137.73 X123.58 Z-0.166237107284 E1.1544
