; generated by NVBOTS
; RAFT - v3.3
;X = 50.0
;Y = 40.0
;Line Temp 200
;Fill Temp 220
;Bridge Multiplier 0.7
;Offset 0.05
G21
M83
M190 V50
M190 S50
M104 S200 T0
G28 Y X
; Begin move/purge/wipe gcode
M38 Sjam
; Start move to purge gcode
G90 ; absolute
G92 E0 ; reset e
M107 ; turn part fan off
G0 X189 F10800
G0 Y0
; End move to purge gcode
M109 S200 T0
; Start Purge Gcode
M107
G91
G0 E6 F100
G90
G92 E0
G10
G0 X160 F5000
G4 P1
G0 X0 F10800
G0 Y228
G92 E0
G11
; End Purge Gcode
M38 Sjam 0 T0 ; turn on jam detection for tool 0 with 0 millisecond timeout
; End move/purge/wipe gcode
G28 Z
M38 Sjam 20000 ; turn on jam detector with 20000ms timeout
;RAFT LINE LAYER NUM 1
G0 Z0.5 F200.0 ; move Z
G10 ; retract
G0 Y1000 X0 Z0.5 F10800.0 ; move to top left corner
M105 ; check temperatures
G4 P1 ; clear buffer
M38 Spic before_raft_line_1 ; take picture
G1 Y148.0 X69.0 Z0.5 F10800.0
G11 ; unretract!
G1 X119.0 Z0.5 E12.2448979592 F1225.0
G1 Y138.0 Z0.5 F10800.0
G1 X69.0 Z0.5 E12.2448979592 F1225.0
G1 Y128.0 Z0.5 F10800.0
G1 X119.0 Z0.5 E12.2448979592 F1225.0
G1 Y118.0 Z0.5 F10800.0
G1 X69.0 Z0.5 E12.2448979592 F1225.0
G1 Y108.0 Z0.5 F10800.0
G1 X119.0 Z0.5 E12.2448979592 F1225.0
;RAFT LINE LAYER NUM 2
G0 Z1.0 F200.0 ; move Z
G10 ; retract
G0 Y1000 X0 Z1.0 F10800.0 ; move to top left corner
M105 ; check temperatures
G4 P1 ; clear buffer
M38 Spic before_raft_line_2 ; take picture
G1 Y148.0 X69.0 Z1.0 F10800.0
G11 ; unretract!
G1 X119.0 Z1.0 E12.2448979592 F1225.0
G1 Y138.0 Z1.0 F10800.0
G1 X69.0 Z1.0 E12.2448979592 F1225.0
G1 Y128.0 Z1.0 F10800.0
G1 X119.0 Z1.0 E12.2448979592 F1225.0
G1 Y118.0 Z1.0 F10800.0
G1 X69.0 Z1.0 E12.2448979592 F1225.0
G1 Y108.0 Z1.0 F10800.0
G1 X119.0 Z1.0 E12.2448979592 F1225.0
;TEMP CHANGE
M104 S220 T0
;RAFT FILL LAYER NUM 1
G0 Z1.2 F200.0 ; move Z
G10 ; retract
G0 Y1000 X0 Z1.2 F10800.0 ; move to top left corner
M105 ; check temperatures
G4 P1 ; clear buffer
M38 Spic before_raft_fill_1 ; take picture
G1 Y148.0 X69.0 Z1.2 F10800.0
G11 ; unretract!
G0 Z1.2 F3828.125
G1 Y108.0 Z1.2 E3.13469387755
G1 X70.2 Z1.2 E0.0940408163265
G1 Y148.0 Z1.2 E3.13469387755
G1 X71.4 Z1.2 E0.0940408163265
G1 Y108.0 Z1.2 E3.13469387755
G1 X72.6 Z1.2 E0.0940408163265
G1 Y148.0 Z1.2 E3.13469387755
G1 X73.8 Z1.2 E0.0940408163265
G1 Y108.0 Z1.2 E3.13469387755
G1 X75.0 Z1.2 E0.0940408163265
G1 Y148.0 Z1.2 E3.13469387755
G1 X76.2 Z1.2 E0.0940408163265
G1 Y108.0 Z1.2 E3.13469387755
G1 X77.4 Z1.2 E0.0940408163265
G1 Y148.0 Z1.2 E3.13469387755
G1 X78.6 Z1.2 E0.0940408163265
G1 Y108.0 Z1.2 E3.13469387755
G1 X79.8 Z1.2 E0.0940408163265
G1 Y148.0 Z1.2 E3.13469387755
G1 X81.0 Z1.2 E0.0940408163265
G1 Y108.0 Z1.2 E3.13469387755
G1 X82.2 Z1.2 E0.0940408163265
G1 Y148.0 Z1.2 E3.13469387755
G1 X83.4 Z1.2 E0.0940408163265
G1 Y108.0 Z1.2 E3.13469387755
G1 X84.6 Z1.2 E0.0940408163265
G1 Y148.0 Z1.2 E3.13469387755
G1 X85.8 Z1.2 E0.0940408163265
G1 Y108.0 Z1.2 E3.13469387755
G1 X87.0 Z1.2 E0.0940408163265
G1 Y148.0 Z1.2 E3.13469387755
G1 X88.2 Z1.2 E0.0940408163265
G1 Y108.0 Z1.2 E3.13469387755
G1 X89.4 Z1.2 E0.0940408163265
G1 Y148.0 Z1.2 E3.13469387755
G1 X90.6 Z1.2 E0.0940408163265
G1 Y108.0 Z1.2 E3.13469387755
G1 X91.8 Z1.2 E0.0940408163265
G1 Y148.0 Z1.2 E3.13469387755
G1 X93.0 Z1.2 E0.0940408163265
G1 Y108.0 Z1.2 E3.13469387755
G1 X94.2 Z1.2 E0.0940408163265
G1 Y148.0 Z1.2 E3.13469387755
G1 X95.4 Z1.2 E0.0940408163265
G1 Y108.0 Z1.2 E3.13469387755
G1 X96.6 Z1.2 E0.0940408163265
G1 Y148.0 Z1.2 E3.13469387755
G1 X97.8 Z1.2 E0.0940408163265
G1 Y108.0 Z1.2 E3.13469387755
G1 X99.0 Z1.2 E0.0940408163265
G1 Y148.0 Z1.2 E3.13469387755
G1 X100.2 Z1.2 E0.0940408163265
G1 Y108.0 Z1.2 E3.13469387755
G1 X101.4 Z1.2 E0.0940408163265
G1 Y148.0 Z1.2 E3.13469387755
G1 X102.6 Z1.2 E0.0940408163265
G1 Y108.0 Z1.2 E3.13469387755
G1 X103.8 Z1.2 E0.0940408163265
G1 Y148.0 Z1.2 E3.13469387755
G1 X105.0 Z1.2 E0.0940408163265
G1 Y108.0 Z1.2 E3.13469387755
G1 X106.2 Z1.2 E0.0940408163265
G1 Y148.0 Z1.2 E3.13469387755
G1 X107.4 Z1.2 E0.0940408163265
G1 Y108.0 Z1.2 E3.13469387755
G1 X108.6 Z1.2 E0.0940408163265
G1 Y148.0 Z1.2 E3.13469387755
G1 X109.8 Z1.2 E0.0940408163265
G1 Y108.0 Z1.2 E3.13469387755
G1 X111.0 Z1.2 E0.0940408163265
G1 Y148.0 Z1.2 E3.13469387755
G1 X112.2 Z1.2 E0.0940408163265
G1 Y108.0 Z1.2 E3.13469387755
G1 X113.4 Z1.2 E0.0940408163265
G1 Y148.0 Z1.2 E3.13469387755
G1 X114.6 Z1.2 E0.0940408163265
G1 Y108.0 Z1.2 E3.13469387755
G1 X115.8 Z1.2 E0.0940408163265
G1 Y148.0 Z1.2 E3.13469387755
G1 X117.0 Z1.2 E0.0940408163265
G1 Y108.0 Z1.2 E3.13469387755
G1 X118.2 Z1.2 E0.0940408163265
G1 Y148.0 Z1.2 E3.13469387755
;RAFT FILL LAYER NUM 2
G0 Z1.6 F200.0 ; move Z
G10 ; retract
G0 Y1000 X0 Z1.6 F10800.0 ; move to top left corner
M105 ; check temperatures
G4 P1 ; clear buffer
M38 Spic before_raft_fill_2 ; take picture
G1 Y148.0 X69.0 Z1.6 F10800.0
G11 ; unretract!
G0 Z1.6 F3828.125
G1 X119.0 Z1.6 E3.91836734694
G1 Y146.8 Z1.6 E0.0940408163265
G1 X69.0 Z1.6 E3.91836734694
G1 Y145.6 Z1.6 E0.0940408163265
G1 X119.0 Z1.6 E3.91836734694
G1 Y144.4 Z1.6 E0.0940408163265
G1 X69.0 Z1.6 E3.91836734694
G1 Y143.2 Z1.6 E0.0940408163265
G1 X119.0 Z1.6 E3.91836734694
G1 Y142.0 Z1.6 E0.0940408163265
G1 X69.0 Z1.6 E3.91836734694
G1 Y140.8 Z1.6 E0.0940408163265
G1 X119.0 Z1.6 E3.91836734694
G1 Y139.6 Z1.6 E0.0940408163265
G1 X69.0 Z1.6 E3.91836734694
G1 Y138.4 Z1.6 E0.0940408163265
G1 X119.0 Z1.6 E3.91836734694
G1 Y137.2 Z1.6 E0.0940408163265
G1 X69.0 Z1.6 E3.91836734694
G1 Y136.0 Z1.6 E0.0940408163265
G1 X119.0 Z1.6 E3.91836734694
G1 Y134.8 Z1.6 E0.0940408163265
G1 X69.0 Z1.6 E3.91836734694
G1 Y133.6 Z1.6 E0.0940408163265
G1 X119.0 Z1.6 E3.91836734694
G1 Y132.4 Z1.6 E0.0940408163265
G1 X69.0 Z1.6 E3.91836734694
G1 Y131.2 Z1.6 E0.0940408163265
G1 X119.0 Z1.6 E3.91836734694
G1 Y130.0 Z1.6 E0.0940408163265
G1 X69.0 Z1.6 E3.91836734694
G1 Y128.8 Z1.6 E0.0940408163265
G1 X119.0 Z1.6 E3.91836734694
G1 Y127.6 Z1.6 E0.0940408163265
G1 X69.0 Z1.6 E3.91836734694
G1 Y126.4 Z1.6 E0.0940408163265
G1 X119.0 Z1.6 E3.91836734694
G1 Y125.2 Z1.6 E0.0940408163265
G1 X69.0 Z1.6 E3.91836734694
G1 Y124.0 Z1.6 E0.0940408163265
G1 X119.0 Z1.6 E3.91836734694
G1 Y122.8 Z1.6 E0.0940408163265
G1 X69.0 Z1.6 E3.91836734694
G1 Y121.6 Z1.6 E0.0940408163265
G1 X119.0 Z1.6 E3.91836734694
G1 Y120.4 Z1.6 E0.0940408163265
G1 X69.0 Z1.6 E3.91836734694
G1 Y119.2 Z1.6 E0.0940408163265
G1 X119.0 Z1.6 E3.91836734694
G1 Y118.0 Z1.6 E0.0940408163265
G1 X69.0 Z1.6 E3.91836734694
G1 Y116.8 Z1.6 E0.0940408163265
G1 X119.0 Z1.6 E3.91836734694
G1 Y115.6 Z1.6 E0.0940408163265
G1 X69.0 Z1.6 E3.91836734694
G1 Y114.4 Z1.6 E0.0940408163265
G1 X119.0 Z1.6 E3.91836734694
G1 Y113.2 Z1.6 E0.0940408163265
G1 X69.0 Z1.6 E3.91836734694
G1 Y112.0 Z1.6 E0.0940408163265
G1 X119.0 Z1.6 E3.91836734694
G1 Y110.8 Z1.6 E0.0940408163265
G1 X69.0 Z1.6 E3.91836734694
G1 Y109.6 Z1.6 E0.0940408163265
G1 X119.0 Z1.6 E3.91836734694
G1 Y108.4 Z1.6 E0.0940408163265
G1 X69.0 Z1.6 E3.91836734694
;RAFT INTERFACE LAYER NUM 1
G0 Z1.9 F200.0 ; move Z
G10 ; retract
G0 Y1000 X0 Z1.9 F10800.0 ; move to top left corner
M105 ; check temperatures
G4 P1 ; clear buffer
M38 Spic before_raft_interface_1 ; take picture
G1 Y148.0 X69.0 Z1.9 F10800.0
G11 ; unretract!
G0 Z1.9 F3402.77777778
G1 Y108.0 Z1.9 E3.52653061224
G1 X70.5 Z1.9 E0.132244897959
G1 Y148.0 Z1.9 E3.52653061224
G1 X72.0 Z1.9 E0.132244897959
G1 Y108.0 Z1.9 E3.52653061224
G1 X73.5 Z1.9 E0.132244897959
G1 Y148.0 Z1.9 E3.52653061224
G1 X75.0 Z1.9 E0.132244897959
G1 Y108.0 Z1.9 E3.52653061224
G1 X76.5 Z1.9 E0.132244897959
G1 Y148.0 Z1.9 E3.52653061224
G1 X78.0 Z1.9 E0.132244897959
G1 Y108.0 Z1.9 E3.52653061224
G1 X79.5 Z1.9 E0.132244897959
G1 Y148.0 Z1.9 E3.52653061224
G1 X81.0 Z1.9 E0.132244897959
G1 Y108.0 Z1.9 E3.52653061224
G1 X82.5 Z1.9 E0.132244897959
G1 Y148.0 Z1.9 E3.52653061224
G1 X84.0 Z1.9 E0.132244897959
G1 Y108.0 Z1.9 E3.52653061224
G1 X85.5 Z1.9 E0.132244897959
G1 Y148.0 Z1.9 E3.52653061224
G1 X87.0 Z1.9 E0.132244897959
G1 Y108.0 Z1.9 E3.52653061224
G1 X88.5 Z1.9 E0.132244897959
G1 Y148.0 Z1.9 E3.52653061224
G1 X90.0 Z1.9 E0.132244897959
G1 Y108.0 Z1.9 E3.52653061224
G1 X91.5 Z1.9 E0.132244897959
G1 Y148.0 Z1.9 E3.52653061224
G1 X93.0 Z1.9 E0.132244897959
G1 Y108.0 Z1.9 E3.52653061224
G1 X94.5 Z1.9 E0.132244897959
G1 Y148.0 Z1.9 E3.52653061224
G1 X96.0 Z1.9 E0.132244897959
G1 Y108.0 Z1.9 E3.52653061224
G1 X97.5 Z1.9 E0.132244897959
G1 Y148.0 Z1.9 E3.52653061224
G1 X99.0 Z1.9 E0.132244897959
G1 Y108.0 Z1.9 E3.52653061224
G1 X100.5 Z1.9 E0.132244897959
G1 Y148.0 Z1.9 E3.52653061224
G1 X102.0 Z1.9 E0.132244897959
G1 Y108.0 Z1.9 E3.52653061224
G1 X103.5 Z1.9 E0.132244897959
G1 Y148.0 Z1.9 E3.52653061224
G1 X105.0 Z1.9 E0.132244897959
G1 Y108.0 Z1.9 E3.52653061224
G1 X106.5 Z1.9 E0.132244897959
G1 Y148.0 Z1.9 E3.52653061224
G1 X108.0 Z1.9 E0.132244897959
G1 Y108.0 Z1.9 E3.52653061224
G1 X109.5 Z1.9 E0.132244897959
G1 Y148.0 Z1.9 E3.52653061224
G1 X111.0 Z1.9 E0.132244897959
G1 Y108.0 Z1.9 E3.52653061224
G1 X112.5 Z1.9 E0.132244897959
G1 Y148.0 Z1.9 E3.52653061224
G1 X114.0 Z1.9 E0.132244897959
G1 Y108.0 Z1.9 E3.52653061224
G1 X115.5 Z1.9 E0.132244897959
G1 Y148.0 Z1.9 E3.52653061224
G1 X117.0 Z1.9 E0.132244897959
G1 Y108.0 Z1.9 E3.52653061224
G1 X118.5 Z1.9 E0.132244897959
G1 Y148.0 Z1.9 E3.52653061224
M206 Z0
M500
G91
G0 Z0.05 F200.0
G90
G92 Z0
G10
G11 ; backlash compensation
; END RAFT
; begin Slic3r start gcode
M38 Sjam  ; Turn off jam detection
G91
G0 Z0.05 E-3 F1000
G90
; Begin move/purge/wipe gcode
M38 Sjam
; Start move to purge gcode
G90 ; absolute
G92 E0 ; reset e
M107 ; turn part fan off
G0 X189 Z0.05 F10800
G0 Y0 Z0.05
; End move to purge gcode
M109 S190 T0
; Start Purge Gcode
M107
G91
G0 Z0.05 E6 F100
G90
G92 E0
G10
G0 X160 Z0.05 F5000
G4 P1
G0 X0 Z0.05 F10800
G0 Y228 Z0.05
G92 E0
G11
; End Purge Gcode
M38 Sjam 28571 T0 ; turn on jam detection for tool 0 with 28571 millisecond timeout
; End move/purge/wipe gcode
M106 S255 ; first layer fan
; finish Slic3r start gcode
G21 ; set units to millimeters
G90 ; use absolute coordinates
M83 ; use relative distances for extrusion
G10 ; retract
G1 Z0.3 F12000.0
M92 E340.298
;$ layer 0
G0 Y230 X0 Z0.3 F10800
G4 P1
M38 Spic 0 ; take picture and tag layer number
M105 ; check temperatures
G1 Y119.7 X75.7 Z0.3 F12000.0
G11 ; unretract
M204 S500
G1 Y119.7 X112.3 Z0.3 E2.17114 F1200.0
G1 Y136.3 X112.3 Z0.3 E0.9847
G1 Y136.3 X75.7 Z0.3 E2.17114
G1 Y119.76 X75.7 Z0.3 E0.98114
M204 S3000
G1 Y119.225 X75.225 Z0.3 F12000.0
M204 S500
G1 Y119.225 X112.775 Z0.3 E2.22757 F1200.0
G1 Y136.775 X112.775 Z0.3 E1.04113
G1 Y136.775 X75.225 Z0.3 E2.22757
G1 Y119.285 X75.225 Z0.3 E1.03757
M204 S3000
G1 Y118.749 X74.749 Z0.3 F12000.0
M204 S500
G1 Y118.749 X113.251 Z0.3 E2.284 F1200.0
G1 Y137.251 X113.251 Z0.3 E1.09756
G1 Y137.251 X74.749 Z0.3 E2.284
G1 Y118.809 X74.749 Z0.3 E1.094
M204 S3000
G1 Y118.949 X75.096 Z0.3 F12000.0
G1 Y135.775 X75.984 Z0.3 F12000.0
M204 S500
G1 Y136.016 X76.225 Z0.3 E0.02046 F1200.0
G1 Y136.016 X76.904 Z0.3 E0.04063
G1 Y135.096 X75.984 Z0.3 E0.07792
G1 Y134.417 X75.984 Z0.3 E0.04063
G1 Y136.016 X77.583 Z0.3 E0.13537
G1 Y136.016 X78.262 Z0.3 E0.04063
G1 Y133.738 X75.984 Z0.3 E0.19283
G1 Y133.06 X75.984 Z0.3 E0.04063
G1 Y136.016 X78.94 Z0.3 E0.25028
G1 Y136.016 X79.619 Z0.3 E0.04063
G1 Y132.381 X75.984 Z0.3 E0.30773
G1 Y131.702 X75.984 Z0.3 E0.04063
G1 Y136.016 X80.298 Z0.3 E0.36519
G1 Y136.016 X80.976 Z0.3 E0.04063
G1 Y131.024 X75.984 Z0.3 E0.42264
G1 Y130.345 X75.984 Z0.3 E0.04063
G1 Y136.016 X81.655 Z0.3 E0.48009
G1 Y136.016 X82.334 Z0.3 E0.04063
G1 Y129.666 X75.984 Z0.3 E0.53755
G1 Y128.987 X75.984 Z0.3 E0.04063
G1 Y136.016 X83.012 Z0.3 E0.595
G1 Y136.016 X83.691 Z0.3 E0.04063
G1 Y128.309 X75.984 Z0.3 E0.65246
G1 Y127.63 X75.984 Z0.3 E0.04063
G1 Y136.016 X84.37 Z0.3 E0.70991
G1 Y136.016 X85.049 Z0.3 E0.04063
G1 Y126.951 X75.984 Z0.3 E0.76736
G1 Y126.273 X75.984 Z0.3 E0.04063
G1 Y136.016 X85.727 Z0.3 E0.82482
G1 Y136.016 X86.406 Z0.3 E0.04063
G1 Y125.594 X75.984 Z0.3 E0.88227
G1 Y124.915 X75.984 Z0.3 E0.04063
G1 Y136.016 X87.085 Z0.3 E0.93973
G1 Y136.016 X87.763 Z0.3 E0.04063
G1 Y124.237 X75.984 Z0.3 E0.99718
G1 Y123.558 X75.984 Z0.3 E0.04063
G1 Y136.016 X88.442 Z0.3 E1.05463
G1 Y136.016 X89.121 Z0.3 E0.04063
G1 Y122.879 X75.984 Z0.3 E1.11209
G1 Y122.2 X75.984 Z0.3 E0.04063
G1 Y136.016 X89.8 Z0.3 E1.16954
G1 Y136.016 X90.478 Z0.3 E0.04063
G1 Y121.522 X75.984 Z0.3 E1.22699
G1 Y120.843 X75.984 Z0.3 E0.04063
G1 Y136.016 X91.157 Z0.3 E1.28445
G1 Y136.016 X91.836 Z0.3 E0.04063
G1 Y120.164 X75.984 Z0.3 E1.3419
G1 Y119.984 X76.482 Z0.3 E0.03171
G1 Y136.016 X92.514 Z0.3 E1.35719
G1 Y136.016 X93.193 Z0.3 E0.04063
G1 Y119.984 X77.16 Z0.3 E1.35719
G1 Y119.984 X77.839 Z0.3 E0.04063
G1 Y136.016 X93.872 Z0.3 E1.35719
G1 Y136.016 X94.551 Z0.3 E0.04063
G1 Y119.984 X78.518 Z0.3 E1.35719
G1 Y119.984 X79.197 Z0.3 E0.04063
G1 Y136.016 X95.229 Z0.3 E1.35719
G1 Y136.016 X95.908 Z0.3 E0.04063
G1 Y119.984 X79.875 Z0.3 E1.35719
G1 Y119.984 X80.554 Z0.3 E0.04063
G1 Y136.016 X96.587 Z0.3 E1.35719
G1 Y136.016 X97.265 Z0.3 E0.04063
G1 Y119.984 X81.233 Z0.3 E1.35719
G1 Y119.984 X81.911 Z0.3 E0.04063
G1 Y136.016 X97.944 Z0.3 E1.35719
G1 Y136.016 X98.623 Z0.3 E0.04063
G1 Y119.984 X82.59 Z0.3 E1.35719
G1 Y119.984 X83.269 Z0.3 E0.04063
G1 Y136.016 X99.301 Z0.3 E1.35719
G1 Y136.016 X99.98 Z0.3 E0.04063
G1 Y119.984 X83.948 Z0.3 E1.35719
G1 Y119.984 X84.626 Z0.3 E0.04063
G1 Y136.016 X100.659 Z0.3 E1.35719
G1 Y136.016 X101.338 Z0.3 E0.04063
G1 Y119.984 X85.305 Z0.3 E1.35719
G1 Y119.984 X85.984 Z0.3 E0.04063
G1 Y136.016 X102.016 Z0.3 E1.35719
G1 Y136.016 X102.695 Z0.3 E0.04063
G1 Y119.984 X86.662 Z0.3 E1.35719
G1 Y119.984 X87.341 Z0.3 E0.04063
G1 Y136.016 X103.374 Z0.3 E1.35719
G1 Y136.016 X104.052 Z0.3 E0.04063
G1 Y119.984 X88.02 Z0.3 E1.35719
G1 Y119.984 X88.698 Z0.3 E0.04063
G1 Y136.016 X104.731 Z0.3 E1.35719
G1 Y136.016 X105.41 Z0.3 E0.04063
G1 Y119.984 X89.377 Z0.3 E1.35719
G1 Y119.984 X90.056 Z0.3 E0.04063
G1 Y136.016 X106.089 Z0.3 E1.35719
G1 Y136.016 X106.767 Z0.3 E0.04063
G1 Y119.984 X90.735 Z0.3 E1.35719
G1 Y119.984 X91.413 Z0.3 E0.04063
G1 Y136.016 X107.446 Z0.3 E1.35719
G1 Y136.016 X108.125 Z0.3 E0.04063
G1 Y119.984 X92.092 Z0.3 E1.35719
G1 Y119.984 X92.771 Z0.3 E0.04063
G1 Y136.016 X108.803 Z0.3 E1.35719
G1 Y136.016 X109.482 Z0.3 E0.04063
G1 Y119.984 X93.449 Z0.3 E1.35719
G1 Y119.984 X94.128 Z0.3 E0.04063
G1 Y136.016 X110.161 Z0.3 E1.35719
G1 Y136.016 X110.839 Z0.3 E0.04063
G1 Y119.984 X94.807 Z0.3 E1.35719
G1 Y119.984 X95.486 Z0.3 E0.04063
G1 Y136.016 X111.518 Z0.3 E1.35719
G1 Y135.836 X112.016 Z0.3 E0.03172
G1 Y119.984 X96.164 Z0.3 E1.34191
G1 Y119.984 X96.843 Z0.3 E0.04063
G1 Y135.157 X112.016 Z0.3 E1.28445
G1 Y134.478 X112.016 Z0.3 E0.04063
G1 Y119.984 X97.522 Z0.3 E1.227
G1 Y119.984 X98.2 Z0.3 E0.04063
G1 Y133.8 X112.016 Z0.3 E1.16954
G1 Y133.121 X112.016 Z0.3 E0.04063
G1 Y119.984 X98.879 Z0.3 E1.11209
G1 Y119.984 X99.558 Z0.3 E0.04063
G1 Y132.442 X112.016 Z0.3 E1.05464
G1 Y131.763 X112.016 Z0.3 E0.04063
G1 Y119.984 X100.237 Z0.3 E0.99718
G1 Y119.984 X100.915 Z0.3 E0.04063
G1 Y131.085 X112.016 Z0.3 E0.93973
G1 Y130.406 X112.016 Z0.3 E0.04063
G1 Y119.984 X101.594 Z0.3 E0.88228
G1 Y119.984 X102.273 Z0.3 E0.04063
G1 Y129.727 X112.016 Z0.3 E0.82482
G1 Y129.049 X112.016 Z0.3 E0.04063
G1 Y119.984 X102.951 Z0.3 E0.76737
G1 Y119.984 X103.63 Z0.3 E0.04063
G1 Y128.37 X112.016 Z0.3 E0.70991
G1 Y127.691 X112.016 Z0.3 E0.04063
G1 Y119.984 X104.309 Z0.3 E0.65246
G1 Y119.984 X104.987 Z0.3 E0.04063
G1 Y127.013 X112.016 Z0.3 E0.59501
G1 Y126.334 X112.016 Z0.3 E0.04063
G1 Y119.984 X105.666 Z0.3 E0.53755
G1 Y119.984 X106.345 Z0.3 E0.04063
G1 Y125.655 X112.016 Z0.3 E0.4801
G1 Y124.976 X112.016 Z0.3 E0.04063
G1 Y119.984 X107.024 Z0.3 E0.42264
G1 Y119.984 X107.702 Z0.3 E0.04063
G1 Y124.298 X112.016 Z0.3 E0.36519
G1 Y123.619 X112.016 Z0.3 E0.04063
G1 Y119.984 X108.381 Z0.3 E0.30774
G1 Y119.984 X109.06 Z0.3 E0.04063
G1 Y122.94 X112.016 Z0.3 E0.25028
G1 Y122.262 X112.016 Z0.3 E0.04063
G1 Y119.984 X109.738 Z0.3 E0.19283
G1 Y119.984 X110.417 Z0.3 E0.04063
G1 Y121.583 X112.016 Z0.3 E0.13538
G1 Y120.904 X112.016 Z0.3 E0.04063
G1 Y119.984 X111.096 Z0.3 E0.07792
