; generated by NVBOTS
; RAFT - v3.3
;X = 50.0
;Y = 40.0
;Line Temp 200
;Fill Temp 220
;Bridge Multiplier 0.7
;Offset 0.05
G21
M83
M190 V50
M190 S50
M104 S200 T0
G28 Y X
; Begin move/purge/wipe gcode
M38 Sjam
; Start move to purge gcode
G90 ; absolute
G92 E0 ; reset e
M107 ; turn part fan off
G0 X189 F10800
G0 Y0
; End move to purge gcode
M109 S200 T0
; Start Purge Gcode
M107
G91
G0 E6 F100
G90
G92 E0
G10
G0 X160 F5000
G4 P1
G0 X0 F10800
G0 Y228
G92 E0
G11
; End Purge Gcode
M38 Sjam 0 T0 ; turn on jam detection for tool 0 with 0 millisecond timeout
; End move/purge/wipe gcode
G28 Z
M38 Sjam 20000 ; turn on jam detector with 20000ms timeout
;RAFT LINE LAYER NUM 1
G0 Z0.5 F200.0 ; move Z
G10 ; retract
G0 Y1000 X0 F10800.0 ; move to top left corner
M105 ; check temperatures
G4 P1 ; clear buffer
M38 Spic before_raft_line_1 ; take picture
G1 Y148.0 X69.0 F10800.0
G11 ; unretract!
G1 X119.0 E12.2448979592 F1225.0
G1 Y138.0 F10800.0
G1 X69.0 E12.2448979592 F1225.0
G1 Y128.0 F10800.0
G1 X119.0 E12.2448979592 F1225.0
G1 Y118.0 F10800.0
G1 X69.0 E12.2448979592 F1225.0
G1 Y108.0 F10800.0
G1 X119.0 E12.2448979592 F1225.0
;RAFT LINE LAYER NUM 2
G0 Z1.0 F200.0 ; move Z
G10 ; retract
G0 Y1000 X0 F10800.0 ; move to top left corner
M105 ; check temperatures
G4 P1 ; clear buffer
M38 Spic before_raft_line_2 ; take picture
G1 Y148.0 X69.0 F10800.0
G11 ; unretract!
G1 X119.0 E12.2448979592 F1225.0
G1 Y138.0 F10800.0
G1 X69.0 E12.2448979592 F1225.0
G1 Y128.0 F10800.0
G1 X119.0 E12.2448979592 F1225.0
G1 Y118.0 F10800.0
G1 X69.0 E12.2448979592 F1225.0
G1 Y108.0 F10800.0
G1 X119.0 E12.2448979592 F1225.0
;TEMP CHANGE
M104 S220 T0
;RAFT FILL LAYER NUM 1
G0 Z1.2 F200.0 ; move Z
G10 ; retract
G0 Y1000 X0 F10800.0 ; move to top left corner
M105 ; check temperatures
G4 P1 ; clear buffer
M38 Spic before_raft_fill_1 ; take picture
G1 Y148.0 X69.0 F10800.0
G11 ; unretract!
G0 F3828.125
G1 Y108.0 E3.13469387755
G1 X70.2 E0.0940408163265
G1 Y148.0 E3.13469387755
G1 X71.4 E0.0940408163265
G1 Y108.0 E3.13469387755
G1 X72.6 E0.0940408163265
G1 Y148.0 E3.13469387755
G1 X73.8 E0.0940408163265
G1 Y108.0 E3.13469387755
G1 X75.0 E0.0940408163265
G1 Y148.0 E3.13469387755
G1 X76.2 E0.0940408163265
G1 Y108.0 E3.13469387755
G1 X77.4 E0.0940408163265
G1 Y148.0 E3.13469387755
G1 X78.6 E0.0940408163265
G1 Y108.0 E3.13469387755
G1 X79.8 E0.0940408163265
G1 Y148.0 E3.13469387755
G1 X81.0 E0.0940408163265
G1 Y108.0 E3.13469387755
G1 X82.2 E0.0940408163265
G1 Y148.0 E3.13469387755
G1 X83.4 E0.0940408163265
G1 Y108.0 E3.13469387755
G1 X84.6 E0.0940408163265
G1 Y148.0 E3.13469387755
G1 X85.8 E0.0940408163265
G1 Y108.0 E3.13469387755
G1 X87.0 E0.0940408163265
G1 Y148.0 E3.13469387755
G1 X88.2 E0.0940408163265
G1 Y108.0 E3.13469387755
G1 X89.4 E0.0940408163265
G1 Y148.0 E3.13469387755
G1 X90.6 E0.0940408163265
G1 Y108.0 E3.13469387755
G1 X91.8 E0.0940408163265
G1 Y148.0 E3.13469387755
G1 X93.0 E0.0940408163265
G1 Y108.0 E3.13469387755
G1 X94.2 E0.0940408163265
G1 Y148.0 E3.13469387755
G1 X95.4 E0.0940408163265
G1 Y108.0 E3.13469387755
G1 X96.6 E0.0940408163265
G1 Y148.0 E3.13469387755
G1 X97.8 E0.0940408163265
G1 Y108.0 E3.13469387755
G1 X99.0 E0.0940408163265
G1 Y148.0 E3.13469387755
G1 X100.2 E0.0940408163265
G1 Y108.0 E3.13469387755
G1 X101.4 E0.0940408163265
G1 Y148.0 E3.13469387755
G1 X102.6 E0.0940408163265
G1 Y108.0 E3.13469387755
G1 X103.8 E0.0940408163265
G1 Y148.0 E3.13469387755
G1 X105.0 E0.0940408163265
G1 Y108.0 E3.13469387755
G1 X106.2 E0.0940408163265
G1 Y148.0 E3.13469387755
G1 X107.4 E0.0940408163265
G1 Y108.0 E3.13469387755
G1 X108.6 E0.0940408163265
G1 Y148.0 E3.13469387755
G1 X109.8 E0.0940408163265
G1 Y108.0 E3.13469387755
G1 X111.0 E0.0940408163265
G1 Y148.0 E3.13469387755
G1 X112.2 E0.0940408163265
G1 Y108.0 E3.13469387755
G1 X113.4 E0.0940408163265
G1 Y148.0 E3.13469387755
G1 X114.6 E0.0940408163265
G1 Y108.0 E3.13469387755
G1 X115.8 E0.0940408163265
G1 Y148.0 E3.13469387755
G1 X117.0 E0.0940408163265
G1 Y108.0 E3.13469387755
G1 X118.2 E0.0940408163265
G1 Y148.0 E3.13469387755
;RAFT FILL LAYER NUM 2
G0 Z1.6 F200.0 ; move Z
G10 ; retract
G0 Y1000 X0 F10800.0 ; move to top left corner
M105 ; check temperatures
G4 P1 ; clear buffer
M38 Spic before_raft_fill_2 ; take picture
G1 Y148.0 X69.0 F10800.0
G11 ; unretract!
G0 F3828.125
G1 X119.0 E3.91836734694
G1 Y146.8 E0.0940408163265
G1 X69.0 E3.91836734694
G1 Y145.6 E0.0940408163265
G1 X119.0 E3.91836734694
G1 Y144.4 E0.0940408163265
G1 X69.0 E3.91836734694
G1 Y143.2 E0.0940408163265
G1 X119.0 E3.91836734694
G1 Y142.0 E0.0940408163265
G1 X69.0 E3.91836734694
G1 Y140.8 E0.0940408163265
G1 X119.0 E3.91836734694
G1 Y139.6 E0.0940408163265
G1 X69.0 E3.91836734694
G1 Y138.4 E0.0940408163265
G1 X119.0 E3.91836734694
G1 Y137.2 E0.0940408163265
G1 X69.0 E3.91836734694
G1 Y136.0 E0.0940408163265
G1 X119.0 E3.91836734694
G1 Y134.8 E0.0940408163265
G1 X69.0 E3.91836734694
G1 Y133.6 E0.0940408163265
G1 X119.0 E3.91836734694
G1 Y132.4 E0.0940408163265
G1 X69.0 E3.91836734694
G1 Y131.2 E0.0940408163265
G1 X119.0 E3.91836734694
G1 Y130.0 E0.0940408163265
G1 X69.0 E3.91836734694
G1 Y128.8 E0.0940408163265
G1 X119.0 E3.91836734694
G1 Y127.6 E0.0940408163265
G1 X69.0 E3.91836734694
G1 Y126.4 E0.0940408163265
G1 X119.0 E3.91836734694
G1 Y125.2 E0.0940408163265
G1 X69.0 E3.91836734694
G1 Y124.0 E0.0940408163265
G1 X119.0 E3.91836734694
G1 Y122.8 E0.0940408163265
G1 X69.0 E3.91836734694
G1 Y121.6 E0.0940408163265
G1 X119.0 E3.91836734694
G1 Y120.4 E0.0940408163265
G1 X69.0 E3.91836734694
G1 Y119.2 E0.0940408163265
G1 X119.0 E3.91836734694
G1 Y118.0 E0.0940408163265
G1 X69.0 E3.91836734694
G1 Y116.8 E0.0940408163265
G1 X119.0 E3.91836734694
G1 Y115.6 E0.0940408163265
G1 X69.0 E3.91836734694
G1 Y114.4 E0.0940408163265
G1 X119.0 E3.91836734694
G1 Y113.2 E0.0940408163265
G1 X69.0 E3.91836734694
G1 Y112.0 E0.0940408163265
G1 X119.0 E3.91836734694
G1 Y110.8 E0.0940408163265
G1 X69.0 E3.91836734694
G1 Y109.6 E0.0940408163265
G1 X119.0 E3.91836734694
G1 Y108.4 E0.0940408163265
G1 X69.0 E3.91836734694
;RAFT INTERFACE LAYER NUM 1
G0 Z1.9 F200.0 ; move Z
G10 ; retract
G0 Y1000 X0 F10800.0 ; move to top left corner
M105 ; check temperatures
G4 P1 ; clear buffer
M38 Spic before_raft_interface_1 ; take picture
G1 Y148.0 X69.0 F10800.0
G11 ; unretract!
G0 F3402.77777778
G1 Y108.0 E3.52653061224
G1 X70.5 E0.132244897959
G1 Y148.0 E3.52653061224
G1 X72.0 E0.132244897959
G1 Y108.0 E3.52653061224
G1 X73.5 E0.132244897959
G1 Y148.0 E3.52653061224
G1 X75.0 E0.132244897959
G1 Y108.0 E3.52653061224
G1 X76.5 E0.132244897959
G1 Y148.0 E3.52653061224
G1 X78.0 E0.132244897959
G1 Y108.0 E3.52653061224
G1 X79.5 E0.132244897959
G1 Y148.0 E3.52653061224
G1 X81.0 E0.132244897959
G1 Y108.0 E3.52653061224
G1 X82.5 E0.132244897959
G1 Y148.0 E3.52653061224
G1 X84.0 E0.132244897959
G1 Y108.0 E3.52653061224
G1 X85.5 E0.132244897959
G1 Y148.0 E3.52653061224
G1 X87.0 E0.132244897959
G1 Y108.0 E3.52653061224
G1 X88.5 E0.132244897959
G1 Y148.0 E3.52653061224
G1 X90.0 E0.132244897959
G1 Y108.0 E3.52653061224
G1 X91.5 E0.132244897959
G1 Y148.0 E3.52653061224
G1 X93.0 E0.132244897959
G1 Y108.0 E3.52653061224
G1 X94.5 E0.132244897959
G1 Y148.0 E3.52653061224
G1 X96.0 E0.132244897959
G1 Y108.0 E3.52653061224
G1 X97.5 E0.132244897959
G1 Y148.0 E3.52653061224
G1 X99.0 E0.132244897959
G1 Y108.0 E3.52653061224
G1 X100.5 E0.132244897959
G1 Y148.0 E3.52653061224
G1 X102.0 E0.132244897959
G1 Y108.0 E3.52653061224
G1 X103.5 E0.132244897959
G1 Y148.0 E3.52653061224
G1 X105.0 E0.132244897959
G1 Y108.0 E3.52653061224
G1 X106.5 E0.132244897959
G1 Y148.0 E3.52653061224
G1 X108.0 E0.132244897959
G1 Y108.0 E3.52653061224
G1 X109.5 E0.132244897959
G1 Y148.0 E3.52653061224
G1 X111.0 E0.132244897959
G1 Y108.0 E3.52653061224
G1 X112.5 E0.132244897959
G1 Y148.0 E3.52653061224
G1 X114.0 E0.132244897959
G1 Y108.0 E3.52653061224
G1 X115.5 E0.132244897959
G1 Y148.0 E3.52653061224
G1 X117.0 E0.132244897959
G1 Y108.0 E3.52653061224
G1 X118.5 E0.132244897959
G1 Y148.0 E3.52653061224
M206 Z0.0
M500
G91
G0 Z0.05 F200.0
G90
G92 Z0.0
G10
G11 ; backlash compensation
; END RAFT
; begin Slic3r start gcode
M38 Sjam  ; Turn off jam detection
G91
G0 E-3 F1000
G90
; Begin move/purge/wipe gcode
M38 Sjam
; Start move to purge gcode
G90 ; absolute
G92 E0 ; reset e
M107 ; turn part fan off
G0 X189 F10800
G0 Y0
; End move to purge gcode
M109 S190 T0
; Start Purge Gcode
M107
G91
G0 E6 F100
G90
G92 E0
G10
G0 X160 F5000
G4 P1
G0 X0 F10800
G0 Y228
G92 E0
G11
; End Purge Gcode
M38 Sjam 28571 T0 ; turn on jam detection for tool 0 with 28571 millisecond timeout
; End move/purge/wipe gcode
M106 S255 ; first layer fan
; finish Slic3r start gcode
G21 ; set units to millimeters
G90 ; use absolute coordinates
M83 ; use relative distances for extrusion
G10 ; retract
G1 Z0.3 F12000.0
M92 E340.298
;$ layer 0
G0 Y230 X0 F10800
G4 P1
M38 Spic 0 ; take picture and tag layer number
M105 ; check temperatures
G1 Y119.7 X75.7 F12000.0
G11 ; unretract
M204 S500
G1 Y119.7 X112.3 E2.17114 F1200.0
G1 Y136.3 X112.3 E0.9847
G1 Y136.3 X75.7 E2.17114
G1 Y119.76 X75.7 E0.98114
M204 S3000
G1 Y119.225 X75.225 F12000.0
M204 S500
G1 Y119.225 X112.775 E2.22757 F1200.0
G1 Y136.775 X112.775 E1.04113
G1 Y136.775 X75.225 E2.22757
G1 Y119.285 X75.225 E1.03757
M204 S3000
G1 Y118.749 X74.749 F12000.0
M204 S500
G1 Y118.749 X113.251 E2.284 F1200.0
G1 Y137.251 X113.251 E1.09756
G1 Y137.251 X74.749 E2.284
G1 Y118.809 X74.749 E1.094
M204 S3000
G1 Y118.949 X75.096 F12000.0
G1 Y135.775 X75.984 F12000.0
M204 S500
G1 Y136.016 X76.225 E0.02046 F1200.0
G1 Y136.016 X76.904 E0.04063
G1 Y135.096 X75.984 E0.07792
G1 Y134.417 X75.984 E0.04063
G1 Y136.016 X77.583 E0.13537
G1 Y136.016 X78.262 E0.04063
G1 Y133.738 X75.984 E0.19283
G1 Y133.06 X75.984 E0.04063
G1 Y136.016 X78.94 E0.25028
G1 Y136.016 X79.619 E0.04063
G1 Y132.381 X75.984 E0.30773
G1 Y131.702 X75.984 E0.04063
G1 Y136.016 X80.298 E0.36519
G1 Y136.016 X80.976 E0.04063
G1 Y131.024 X75.984 E0.42264
G1 Y130.345 X75.984 E0.04063
G1 Y136.016 X81.655 E0.48009
G1 Y136.016 X82.334 E0.04063
G1 Y129.666 X75.984 E0.53755
G1 Y128.987 X75.984 E0.04063
G1 Y136.016 X83.012 E0.595
G1 Y136.016 X83.691 E0.04063
G1 Y128.309 X75.984 E0.65246
G1 Y127.63 X75.984 E0.04063
G1 Y136.016 X84.37 E0.70991
G1 Y136.016 X85.049 E0.04063
G1 Y126.951 X75.984 E0.76736
G1 Y126.273 X75.984 E0.04063
G1 Y136.016 X85.727 E0.82482
G1 Y136.016 X86.406 E0.04063
G1 Y125.594 X75.984 E0.88227
G1 Y124.915 X75.984 E0.04063
G1 Y136.016 X87.085 E0.93973
G1 Y136.016 X87.763 E0.04063
G1 Y124.237 X75.984 E0.99718
G1 Y123.558 X75.984 E0.04063
G1 Y136.016 X88.442 E1.05463
G1 Y136.016 X89.121 E0.04063
G1 Y122.879 X75.984 E1.11209
G1 Y122.2 X75.984 E0.04063
G1 Y136.016 X89.8 E1.16954
G1 Y136.016 X90.478 E0.04063
G1 Y121.522 X75.984 E1.22699
G1 Y120.843 X75.984 E0.04063
G1 Y136.016 X91.157 E1.28445
G1 Y136.016 X91.836 E0.04063
G1 Y120.164 X75.984 E1.3419
G1 Y119.984 X76.482 E0.03171
G1 Y136.016 X92.514 E1.35719
G1 Y136.016 X93.193 E0.04063
G1 Y119.984 X77.16 E1.35719
G1 Y119.984 X77.839 E0.04063
G1 Y136.016 X93.872 E1.35719
G1 Y136.016 X94.551 E0.04063
G1 Y119.984 X78.518 E1.35719
G1 Y119.984 X79.197 E0.04063
G1 Y136.016 X95.229 E1.35719
G1 Y136.016 X95.908 E0.04063
G1 Y119.984 X79.875 E1.35719
G1 Y119.984 X80.554 E0.04063
G1 Y136.016 X96.587 E1.35719
G1 Y136.016 X97.265 E0.04063
G1 Y119.984 X81.233 E1.35719
G1 Y119.984 X81.911 E0.04063
G1 Y136.016 X97.944 E1.35719
G1 Y136.016 X98.623 E0.04063
G1 Y119.984 X82.59 E1.35719
G1 Y119.984 X83.269 E0.04063
G1 Y136.016 X99.301 E1.35719
G1 Y136.016 X99.98 E0.04063
G1 Y119.984 X83.948 E1.35719
G1 Y119.984 X84.626 E0.04063
G1 Y136.016 X100.659 E1.35719
G1 Y136.016 X101.338 E0.04063
G1 Y119.984 X85.305 E1.35719
G1 Y119.984 X85.984 E0.04063
G1 Y136.016 X102.016 E1.35719
G1 Y136.016 X102.695 E0.04063
G1 Y119.984 X86.662 E1.35719
G1 Y119.984 X87.341 E0.04063
G1 Y136.016 X103.374 E1.35719
G1 Y136.016 X104.052 E0.04063
G1 Y119.984 X88.02 E1.35719
G1 Y119.984 X88.698 E0.04063
G1 Y136.016 X104.731 E1.35719
G1 Y136.016 X105.41 E0.04063
G1 Y119.984 X89.377 E1.35719
G1 Y119.984 X90.056 E0.04063
G1 Y136.016 X106.089 E1.35719
G1 Y136.016 X106.767 E0.04063
G1 Y119.984 X90.735 E1.35719
G1 Y119.984 X91.413 E0.04063
G1 Y136.016 X107.446 E1.35719
G1 Y136.016 X108.125 E0.04063
G1 Y119.984 X92.092 E1.35719
G1 Y119.984 X92.771 E0.04063
G1 Y136.016 X108.803 E1.35719
G1 Y136.016 X109.482 E0.04063
G1 Y119.984 X93.449 E1.35719
G1 Y119.984 X94.128 E0.04063
G1 Y136.016 X110.161 E1.35719
G1 Y136.016 X110.839 E0.04063
G1 Y119.984 X94.807 E1.35719
G1 Y119.984 X95.486 E0.04063
G1 Y136.016 X111.518 E1.35719
G1 Y135.836 X112.016 E0.03172
G1 Y119.984 X96.164 E1.34191
G1 Y119.984 X96.843 E0.04063
G1 Y135.157 X112.016 E1.28445
G1 Y134.478 X112.016 E0.04063
G1 Y119.984 X97.522 E1.227
G1 Y119.984 X98.2 E0.04063
G1 Y133.8 X112.016 E1.16954
G1 Y133.121 X112.016 E0.04063
G1 Y119.984 X98.879 E1.11209
G1 Y119.984 X99.558 E0.04063
G1 Y132.442 X112.016 E1.05464
G1 Y131.763 X112.016 E0.04063
G1 Y119.984 X100.237 E0.99718
G1 Y119.984 X100.915 E0.04063
G1 Y131.085 X112.016 E0.93973
G1 Y130.406 X112.016 E0.04063
G1 Y119.984 X101.594 E0.88228
G1 Y119.984 X102.273 E0.04063
G1 Y129.727 X112.016 E0.82482
G1 Y129.049 X112.016 E0.04063
G1 Y119.984 X102.951 E0.76737
G1 Y119.984 X103.63 E0.04063
G1 Y128.37 X112.016 E0.70991
G1 Y127.691 X112.016 E0.04063
G1 Y119.984 X104.309 E0.65246
G1 Y119.984 X104.987 E0.04063
G1 Y127.013 X112.016 E0.59501
G1 Y126.334 X112.016 E0.04063
G1 Y119.984 X105.666 E0.53755
G1 Y119.984 X106.345 E0.04063
G1 Y125.655 X112.016 E0.4801
G1 Y124.976 X112.016 E0.04063
G1 Y119.984 X107.024 E0.42264
G1 Y119.984 X107.702 E0.04063
G1 Y124.298 X112.016 E0.36519
G1 Y123.619 X112.016 E0.04063
G1 Y119.984 X108.381 E0.30774
G1 Y119.984 X109.06 E0.04063
G1 Y122.94 X112.016 E0.25028
G1 Y122.262 X112.016 E0.04063
G1 Y119.984 X109.738 E0.19283
G1 Y119.984 X110.417 E0.04063
G1 Y121.583 X112.016 E0.13538
G1 Y120.904 X112.016 E0.04063
G1 Y119.984 X111.096 E0.07792
G1 Y119.984 X111.775 E0.04063
G1 Y120.225 X112.016 E0.02047
M204 S3000
M106 S198.9
M104 S220 ; set temperature
M140 S50 ; wait for bed temperature to be reached
G10 ; retract
G1 Z0.6 F12000.0
M92 E486.14
; Starting 2nd layer purge
; Begin move/purge/wipe gcode
M38 Sjam
; Start move to purge gcode
G90 ; absolute
G92 E0 ; reset e
M107 ; turn part fan off
G0 X189 F10800
G0 Y0
; End move to purge gcode
M109 S220 T0
; Start Purge Gcode
M107
G91
G0 E6 F100
G90
G92 E0
G10
G0 X160 F5000
G4 P1
G0 X0 F10800
G0 Y228
G92 E0
G11
; End Purge Gcode
M38 Sjam 20000 T0 ; turn on jam detection for tool 0 with 20000 millisecond timeout
; End move/purge/wipe gcode
M106 S198.9
G1 Z0.6 F12000.0
; Begin wall layer v2 main wall
G0 Y146.2 X109.7 F10800 ; pos 1
G11
G0 X117.2 E2.64489795918 F425.347222222 ; pos 2
G0 Y138.7 E2.64489795918 ; pos 3
G10
G0 Y117.3 F10800 ; pos 4
G11
G0 Y109.8 E2.64489795918 F425.347222222 ; pos 5
G0 X109.7 E2.64489795918 ; pos 6
G10
G0 X78.3 F10800 ; pos 7
G11
G0 X70.8 E2.64489795918 F425.347222222 ; pos 8
G0 Y117.3 E2.64489795918 ; pos 9
G10
G0 Y138.7 F10800 ; pos 10
G11
G0 Y146.2 E2.64489795918 F425.347222222 ; pos 11
G0 X78.3 E2.64489795918 ; pos 12
G10
; End wall layer v2 main wall
; Begin wall layer v2 extra wall
G0 Y147.55 X109.7 F10800 ; pos 1
G11
G0 X118.55 E3.12097959184 F425.347222222 ; pos 2
G0 Y138.7 E3.12097959184 ; pos 3
G10
G0 Y117.3 F10800 ; pos 4
G11
G0 Y108.45 E3.12097959184 F425.347222222 ; pos 5
G0 X109.7 E3.12097959184 ; pos 6
G10
G0 X78.3 F10800 ; pos 7
G11
G0 X69.45 E3.12097959184 F425.347222222 ; pos 8
G0 Y117.3 E3.12097959184 ; pos 9
G10
G0 Y138.7 F10800 ; pos 10
G11
G0 Y147.55 E3.12097959184 F425.347222222 ; pos 11
G0 X78.3 E3.12097959184 ; pos 12
G10
; End wall layer v2 extra wall
;$ layer 1
G0 Y230 X0 F10800
G4 P1
M38 Spic 1 ; take picture and tag layer number
M105 ; check temperatures
G1 Y119.012 X75.012 F12000.0
G11 ; unretract
M204 S200
G1 Y119.012 X112.988 E1.54234 F3600.0
G1 Y136.988 X112.988 E0.73008
G1 Y136.988 X75.012 E1.54234
G1 Y119.072 X75.012 E0.72764
M204 S3000
G1 Y118.686 X74.686 F12000.0
M204 S200
G1 Y118.686 X113.314 E1.56879 F3600.0
