; generated by NVBOTS
; RAFT - v3.3
;X = 50.0
;Y = 40.0
;Line Temp 200
;Fill Temp 220
;Bridge Multiplier 0.7
;Offset 0.05
G21
M83
M190 V50
M190 S50
M104 T0 S200
G28 X Y
; Begin move/purge/wipe gcode
M38 Sjam
; Start move to purge gcode
G90 ; absolute
G92 E0 ; reset e
M107 ; turn part fan off
G0 X189 F10800 ;
G0 Y0
; End move to purge gcode
M109 T0 S200
; Start Purge Gcode
M107
G91
G0 E6 F100
G90
G92 E0
G10
G0 X160 F5000
G4 P1
G0 X0 F10800
G0 Y228
G92 E0
G11
; End Purge Gcode
M38 Sjam 0 T0; turn on jam detection for tool 0 with 0 millisecond timeout
; End move/purge/wipe gcode
G28 Z
M38 Sjam 20000; turn on jam detector with 20000ms timeout

;RAFT LINE LAYER NUM 1

G0 Z0.5 F200.0 ; move Z
G10 ; retract
G0 X0 Y1000 F10800.0 ; move to top left corner
M105 ; check temperatures
G4 P1 ; clear buffer
M38 Spic before_raft_line_1; take picture
G1 X69.0 Y148.0 F10800.0
G11 ; unretract!
G1 X119.0 E12.2448979592 F1225.0
G1 Y138.0 F10800.0
G1 X69.0 E12.2448979592 F1225.0
G1 Y128.0 F10800.0
G1 X119.0 E12.2448979592 F1225.0
G1 Y118.0 F10800.0
G1 X69.0 E12.2448979592 F1225.0
G1 Y108.0 F10800.0
G1 X119.0 E12.2448979592 F1225.0

;RAFT LINE LAYER NUM 2

G0 Z1.0 F200.0 ; move Z
G10 ; retract
G0 X0 Y1000 F10800.0 ; move to top left corner
M105 ; check temperatures
G4 P1 ; clear buffer
M38 Spic before_raft_line_2; take picture
G1 X69.0 Y148.0 F10800.0
G11 ; unretract!
G1 X119.0 E12.2448979592 F1225.0
G1 Y138.0 F10800.0
G1 X69.0 E12.2448979592 F1225.0
G1 Y128.0 F10800.0
G1 X119.0 E12.2448979592 F1225.0
G1 Y118.0 F10800.0
G1 X69.0 E12.2448979592 F1225.0
G1 Y108.0 F10800.0
G1 X119.0 E12.2448979592 F1225.0

;TEMP CHANGE
M104 T0 S220

;RAFT FILL LAYER NUM 1

G0 Z1.2 F200.0 ; move Z
G10 ; retract
G0 X0 Y1000 F10800.0 ; move to top left corner
M105 ; check temperatures
G4 P1 ; clear buffer
M38 Spic before_raft_fill_1; take picture
G1 X69.0 Y148.0 F10800.0
G11 ; unretract!
G0 F3828.125
G1 Y108.0 E3.13469387755
G1 X70.2 E0.0940408163265
G1 Y148.0 E3.13469387755
G1 X71.4 E0.0940408163265
G1 Y108.0 E3.13469387755
G1 X72.6 E0.0940408163265
G1 Y148.0 E3.13469387755
G1 X73.8 E0.0940408163265
G1 Y108.0 E3.13469387755
G1 X75.0 E0.0940408163265
G1 Y148.0 E3.13469387755
G1 X76.2 E0.0940408163265
G1 Y108.0 E3.13469387755
G1 X77.4 E0.0940408163265
G1 Y148.0 E3.13469387755
G1 X78.6 E0.0940408163265
G1 Y108.0 E3.13469387755
G1 X79.8 E0.0940408163265
G1 Y148.0 E3.13469387755
G1 X81.0 E0.0940408163265
G1 Y108.0 E3.13469387755
G1 X82.2 E0.0940408163265
G1 Y148.0 E3.13469387755
G1 X83.4 E0.0940408163265
G1 Y108.0 E3.13469387755
G1 X84.6 E0.0940408163265
G1 Y148.0 E3.13469387755
G1 X85.8 E0.0940408163265
G1 Y108.0 E3.13469387755
G1 X87.0 E0.0940408163265
G1 Y148.0 E3.13469387755
G1 X88.2 E0.0940408163265
G1 Y108.0 E3.13469387755
G1 X89.4 E0.0940408163265
G1 Y148.0 E3.13469387755
G1 X90.6 E0.0940408163265
G1 Y108.0 E3.13469387755
G1 X91.8 E0.0940408163265
G1 Y148.0 E3.13469387755
G1 X93.0 E0.0940408163265
G1 Y108.0 E3.13469387755
G1 X94.2 E0.0940408163265
G1 Y148.0 E3.13469387755
G1 X95.4 E0.0940408163265
G1 Y108.0 E3.13469387755
G1 X96.6 E0.0940408163265
G1 Y148.0 E3.13469387755
G1 X97.8 E0.0940408163265
G1 Y108.0 E3.13469387755
G1 X99.0 E0.0940408163265
G1 Y148.0 E3.13469387755
G1 X100.2 E0.0940408163265
G1 Y108.0 E3.13469387755
G1 X101.4 E0.0940408163265
G1 Y148.0 E3.13469387755
G1 X102.6 E0.0940408163265
G1 Y108.0 E3.13469387755
G1 X103.8 E0.0940408163265
G1 Y148.0 E3.13469387755
G1 X105.0 E0.0940408163265
G1 Y108.0 E3.13469387755
G1 X106.2 E0.0940408163265
G1 Y148.0 E3.13469387755
G1 X107.4 E0.0940408163265
G1 Y108.0 E3.13469387755
G1 X108.6 E0.0940408163265
G1 Y148.0 E3.13469387755
G1 X109.8 E0.0940408163265
G1 Y108.0 E3.13469387755
G1 X111.0 E0.0940408163265
G1 Y148.0 E3.13469387755
G1 X112.2 E0.0940408163265
G1 Y108.0 E3.13469387755
G1 X113.4 E0.0940408163265
G1 Y148.0 E3.13469387755
G1 X114.6 E0.0940408163265
G1 Y108.0 E3.13469387755
G1 X115.8 E0.0940408163265
G1 Y148.0 E3.13469387755
G1 X117.0 E0.0940408163265
G1 Y108.0 E3.13469387755
G1 X118.2 E0.0940408163265
G1 Y148.0 E3.13469387755

;RAFT FILL LAYER NUM 2

G0 Z1.6 F200.0 ; move Z
G10 ; retract
G0 X0 Y1000 F10800.0 ; move to top left corner
M105 ; check temperatures
G4 P1 ; clear buffer
M38 Spic before_raft_fill_2; take picture
G1 X69.0 Y148.0 F10800.0
G11 ; unretract!
G0 F3828.125
G1 X119.0 E3.91836734694
G1 Y146.8 E0.0940408163265
G1 X69.0 E3.91836734694
G1 Y145.6 E0.0940408163265
G1 X119.0 E3.91836734694
G1 Y144.4 E0.0940408163265
G1 X69.0 E3.91836734694
G1 Y143.2 E0.0940408163265
G1 X119.0 E3.91836734694
G1 Y142.0 E0.0940408163265
G1 X69.0 E3.91836734694
G1 Y140.8 E0.0940408163265
G1 X119.0 E3.91836734694
G1 Y139.6 E0.0940408163265
G1 X69.0 E3.91836734694
G1 Y138.4 E0.0940408163265
G1 X119.0 E3.91836734694
G1 Y137.2 E0.0940408163265
G1 X69.0 E3.91836734694
G1 Y136.0 E0.0940408163265
G1 X119.0 E3.91836734694
G1 Y134.8 E0.0940408163265
G1 X69.0 E3.91836734694
G1 Y133.6 E0.0940408163265
G1 X119.0 E3.91836734694
G1 Y132.4 E0.0940408163265
G1 X69.0 E3.91836734694
G1 Y131.2 E0.0940408163265
G1 X119.0 E3.91836734694
G1 Y130.0 E0.0940408163265
G1 X69.0 E3.91836734694
G1 Y128.8 E0.0940408163265
G1 X119.0 E3.91836734694
G1 Y127.6 E0.0940408163265
G1 X69.0 E3.91836734694
G1 Y126.4 E0.0940408163265
G1 X119.0 E3.91836734694
G1 Y125.2 E0.0940408163265
G1 X69.0 E3.91836734694
G1 Y124.0 E0.0940408163265
G1 X119.0 E3.91836734694
G1 Y122.8 E0.0940408163265
G1 X69.0 E3.91836734694
G1 Y121.6 E0.0940408163265
G1 X119.0 E3.91836734694
G1 Y120.4 E0.0940408163265
G1 X69.0 E3.91836734694
G1 Y119.2 E0.0940408163265
G1 X119.0 E3.91836734694
G1 Y118.0 E0.0940408163265
G1 X69.0 E3.91836734694
G1 Y116.8 E0.0940408163265
G1 X119.0 E3.91836734694
G1 Y115.6 E0.0940408163265
G1 X69.0 E3.91836734694
G1 Y114.4 E0.0940408163265
G1 X119.0 E3.91836734694
G1 Y113.2 E0.0940408163265
G1 X69.0 E3.91836734694
G1 Y112.0 E0.0940408163265
G1 X119.0 E3.91836734694
G1 Y110.8 E0.0940408163265
G1 X69.0 E3.91836734694
G1 Y109.6 E0.0940408163265
G1 X119.0 E3.91836734694
G1 Y108.4 E0.0940408163265
G1 X69.0 E3.91836734694

;RAFT INTERFACE LAYER NUM 1

G0 Z1.9 F200.0 ; move Z
G10 ; retract
G0 X0 Y1000 F10800.0 ; move to top left corner
M105 ; check temperatures
G4 P1 ; clear buffer
M38 Spic before_raft_interface_1; take picture
G1 X69.0 Y148.0 F10800.0
G11 ; unretract!
G0 F3402.77777778
G1 Y108.0 E3.52653061224
G1 X70.5 E0.132244897959
G1 Y148.0 E3.52653061224
G1 X72.0 E0.132244897959
G1 Y108.0 E3.52653061224
G1 X73.5 E0.132244897959
G1 Y148.0 E3.52653061224
G1 X75.0 E0.132244897959
G1 Y108.0 E3.52653061224
G1 X76.5 E0.132244897959
G1 Y148.0 E3.52653061224
G1 X78.0 E0.132244897959
G1 Y108.0 E3.52653061224
G1 X79.5 E0.132244897959
G1 Y148.0 E3.52653061224
G1 X81.0 E0.132244897959
G1 Y108.0 E3.52653061224
G1 X82.5 E0.132244897959
G1 Y148.0 E3.52653061224
G1 X84.0 E0.132244897959
G1 Y108.0 E3.52653061224
G1 X85.5 E0.132244897959
G1 Y148.0 E3.52653061224
G1 X87.0 E0.132244897959
G1 Y108.0 E3.52653061224
G1 X88.5 E0.132244897959
G1 Y148.0 E3.52653061224
G1 X90.0 E0.132244897959
G1 Y108.0 E3.52653061224
G1 X91.5 E0.132244897959
G1 Y148.0 E3.52653061224
G1 X93.0 E0.132244897959
G1 Y108.0 E3.52653061224
G1 X94.5 E0.132244897959
G1 Y148.0 E3.52653061224
G1 X96.0 E0.132244897959
G1 Y108.0 E3.52653061224
G1 X97.5 E0.132244897959
G1 Y148.0 E3.52653061224
G1 X99.0 E0.132244897959
G1 Y108.0 E3.52653061224
G1 X100.5 E0.132244897959
G1 Y148.0 E3.52653061224
G1 X102.0 E0.132244897959
G1 Y108.0 E3.52653061224
G1 X103.5 E0.132244897959
G1 Y148.0 E3.52653061224
G1 X105.0 E0.132244897959
G1 Y108.0 E3.52653061224
G1 X106.5 E0.132244897959
G1 Y148.0 E3.52653061224
G1 X108.0 E0.132244897959
G1 Y108.0 E3.52653061224
G1 X109.5 E0.132244897959
G1 Y148.0 E3.52653061224
G1 X111.0 E0.132244897959
G1 Y108.0 E3.52653061224
G1 X112.5 E0.132244897959
G1 Y148.0 E3.52653061224
G1 X114.0 E0.132244897959
G1 Y108.0 E3.52653061224
G1 X115.5 E0.132244897959
G1 Y148.0 E3.52653061224
G1 X117.0 E0.132244897959
G1 Y108.0 E3.52653061224
G1 X118.5 E0.132244897959
G1 Y148.0 E3.52653061224
M206 Z0
M500
G91
G0 Z0.050000 F200.0
G90
G92 Z0
G10
G11; backlash compensation
; END RAFT

; begin Slic3r start gcode
M38 Sjam ; Turn off jam detection
G91
G0 E-3 F1000
G90
; Begin move/purge/wipe gcode
M38 Sjam
; Start move to purge gcode
G90 ; absolute
G92 E0 ; reset e
M107 ; turn part fan off
G0 X189 F10800 ;
G0 Y0
; End move to purge gcode
M109 T0 S190
; Start Purge Gcode
M107
G91
G0 E6 F100
G90
G92 E0
G10
G0 X160 F5000
G4 P1
G0 X0 F10800
G0 Y228
G92 E0
G11
; End Purge Gcode
M38 Sjam 28571 T0; turn on jam detection for tool 0 with 28571 millisecond timeout
; End move/purge/wipe gcode

M106 S255; first layer fan
; finish Slic3r start gcode
G21 ; set units to millimeters
G90 ; use absolute coordinates
M83 ; use relative distances for extrusion
G10 ; retract
G1 Z0.300 F12000.000
M92 E340.298
;$ layer 0
G0 X0 Y230 F10800;
G4 P1
M38 Spic 0; take picture and tag layer number
M105; check temperatures
G1 X75.700 Y119.700 F12000.000
G11 ; unretract
M204 S500
G1 X112.300 Y119.700 E2.17114 F1200.000
G1 X112.300 Y136.300 E0.98470
G1 X75.700 Y136.300 E2.17114
G1 X75.700 Y119.760 E0.98114
M204 S3000
G1 X75.225 Y119.225 F12000.000
M204 S500
G1 X112.775 Y119.225 E2.22757 F1200.000
G1 X112.775 Y136.775 E1.04113
G1 X75.225 Y136.775 E2.22757
G1 X75.225 Y119.285 E1.03757
M204 S3000
G1 X74.749 Y118.749 F12000.000
M204 S500
G1 X113.251 Y118.749 E2.28400 F1200.000
G1 X113.251 Y137.251 E1.09756
G1 X74.749 Y137.251 E2.28400
G1 X74.749 Y118.809 E1.09400
M204 S3000
G1 X75.096 Y118.949 F12000.000
G1 X75.984 Y135.775 F12000.000
M204 S500
G1 X76.225 Y136.016 E0.02046 F1200.000
G1 X76.904 Y136.016 E0.04063
G1 X75.984 Y135.096 E0.07792
G1 X75.984 Y134.417 E0.04063
G1 X77.583 Y136.016 E0.13537
G1 X78.262 Y136.016 E0.04063
G1 X75.984 Y133.738 E0.19283
G1 X75.984 Y133.060 E0.04063
G1 X78.940 Y136.016 E0.25028
G1 X79.619 Y136.016 E0.04063
G1 X75.984 Y132.381 E0.30773
G1 X75.984 Y131.702 E0.04063
G1 X80.298 Y136.016 E0.36519
G1 X80.976 Y136.016 E0.04063
G1 X75.984 Y131.024 E0.42264
G1 X75.984 Y130.345 E0.04063
G1 X81.655 Y136.016 E0.48009
G1 X82.334 Y136.016 E0.04063
G1 X75.984 Y129.666 E0.53755
G1 X75.984 Y128.987 E0.04063
G1 X83.012 Y136.016 E0.59500
G1 X83.691 Y136.016 E0.04063
G1 X75.984 Y128.309 E0.65246
G1 X75.984 Y127.630 E0.04063
G1 X84.370 Y136.016 E0.70991
G1 X85.049 Y136.016 E0.04063
G1 X75.984 Y126.951 E0.76736
G1 X75.984 Y126.273 E0.04063
G1 X85.727 Y136.016 E0.82482
G1 X86.406 Y136.016 E0.04063
G1 X75.984 Y125.594 E0.88227
G1 X75.984 Y124.915 E0.04063
G1 X87.085 Y136.016 E0.93973
G1 X87.763 Y136.016 E0.04063
G1 X75.984 Y124.237 E0.99718
G1 X75.984 Y123.558 E0.04063
G1 X88.442 Y136.016 E1.05463
G1 X89.121 Y136.016 E0.04063
G1 X75.984 Y122.879 E1.11209
G1 X75.984 Y122.200 E0.04063
G1 X89.800 Y136.016 E1.16954
G1 X90.478 Y136.016 E0.04063
G1 X75.984 Y121.522 E1.22699
G1 X75.984 Y120.843 E0.04063
G1 X91.157 Y136.016 E1.28445
G1 X91.836 Y136.016 E0.04063
G1 X75.984 Y120.164 E1.34190
G1 X76.482 Y119.984 E0.03171
G1 X92.514 Y136.016 E1.35719
G1 X93.193 Y136.016 E0.04063
G1 X77.160 Y119.984 E1.35719
G1 X77.839 Y119.984 E0.04063
G1 X93.872 Y136.016 E1.35719
G1 X94.551 Y136.016 E0.04063
G1 X78.518 Y119.984 E1.35719
G1 X79.197 Y119.984 E0.04063
G1 X95.229 Y136.016 E1.35719
G1 X95.908 Y136.016 E0.04063
G1 X79.875 Y119.984 E1.35719
G1 X80.554 Y119.984 E0.04063
G1 X96.587 Y136.016 E1.35719
G1 X97.265 Y136.016 E0.04063
G1 X81.233 Y119.984 E1.35719
G1 X81.911 Y119.984 E0.04063
G1 X97.944 Y136.016 E1.35719
G1 X98.623 Y136.016 E0.04063
G1 X82.590 Y119.984 E1.35719
G1 X83.269 Y119.984 E0.04063
G1 X99.301 Y136.016 E1.35719
G1 X99.980 Y136.016 E0.04063
G1 X83.948 Y119.984 E1.35719
G1 X84.626 Y119.984 E0.04063
G1 X100.659 Y136.016 E1.35719
G1 X101.338 Y136.016 E0.04063
G1 X85.305 Y119.984 E1.35719
G1 X85.984 Y119.984 E0.04063
G1 X102.016 Y136.016 E1.35719
G1 X102.695 Y136.016 E0.04063
G1 X86.662 Y119.984 E1.35719
G1 X87.341 Y119.984 E0.04063
G1 X103.374 Y136.016 E1.35719
G1 X104.052 Y136.016 E0.04063
G1 X88.020 Y119.984 E1.35719
G1 X88.698 Y119.984 E0.04063
G1 X104.731 Y136.016 E1.35719
G1 X105.410 Y136.016 E0.04063
G1 X89.377 Y119.984 E1.35719
G1 X90.056 Y119.984 E0.04063
G1 X106.089 Y136.016 E1.35719
G1 X106.767 Y136.016 E0.04063
G1 X90.735 Y119.984 E1.35719
G1 X91.413 Y119.984 E0.04063
G1 X107.446 Y136.016 E1.35719
G1 X108.125 Y136.016 E0.04063
G1 X92.092 Y119.984 E1.35719
G1 X92.771 Y119.984 E0.04063
G1 X108.803 Y136.016 E1.35719
G1 X109.482 Y136.016 E0.04063
G1 X93.449 Y119.984 E1.35719
G1 X94.128 Y119.984 E0.04063
G1 X110.161 Y136.016 E1.35719
G1 X110.839 Y136.016 E0.04063
G1 X94.807 Y119.984 E1.35719
G1 X95.486 Y119.984 E0.04063
G1 X111.518 Y136.016 E1.35719
G1 X112.016 Y135.836 E0.03172
G1 X96.164 Y119.984 E1.34191
G1 X96.843 Y119.984 E0.04063
G1 X112.016 Y135.157 E1.28445
G1 X112.016 Y134.478 E0.04063
G1 X97.522 Y119.984 E1.22700
G1 X98.200 Y119.984 E0.04063
G1 X112.016 Y133.800 E1.16954
G1 X112.016 Y133.121 E0.04063
G1 X98.879 Y119.984 E1.11209
G1 X99.558 Y119.984 E0.04063
G1 X112.016 Y132.442 E1.05464
G1 X112.016 Y131.763 E0.04063
G1 X100.237 Y119.984 E0.99718
G1 X100.915 Y119.984 E0.04063
G1 X112.016 Y131.085 E0.93973
G1 X112.016 Y130.406 E0.04063
G1 X101.594 Y119.984 E0.88228
G1 X102.273 Y119.984 E0.04063
G1 X112.016 Y129.727 E0.82482
G1 X112.016 Y129.049 E0.04063
G1 X102.951 Y119.984 E0.76737
G1 X103.630 Y119.984 E0.04063
G1 X112.016 Y128.370 E0.70991
G1 X112.016 Y127.691 E0.04063
G1 X104.309 Y119.984 E0.65246
G1 X104.987 Y119.984 E0.04063
G1 X112.016 Y127.013 E0.59501
G1 X112.016 Y126.334 E0.04063
G1 X105.666 Y119.984 E0.53755
G1 X106.345 Y119.984 E0.04063
G1 X112.016 Y125.655 E0.48010
G1 X112.016 Y124.976 E0.04063
G1 X107.024 Y119.984 E0.42264
G1 X107.702 Y119.984 E0.04063
G1 X112.016 Y124.298 E0.36519
G1 X112.016 Y123.619 E0.04063
G1 X108.381 Y119.984 E0.30774
G1 X109.060 Y119.984 E0.04063
G1 X112.016 Y122.940 E0.25028
G1 X112.016 Y122.262 E0.04063
G1 X109.738 Y119.984 E0.19283
G1 X110.417 Y119.984 E0.04063
G1 X112.016 Y121.583 E0.13538
G1 X112.016 Y120.904 E0.04063
G1 X111.096 Y119.984 E0.07792
G1 X111.775 Y119.984 E0.04063
G1 X112.016 Y120.225 E0.02047
M204 S3000
M106 S198.9
M104 S220 ; set temperature
M140 S50 ; wait for bed temperature to be reached
G10 ; retract
G1 Z0.600 F12000.000
M92 E486.14
; Starting 2nd layer purge
; Begin move/purge/wipe gcode
M38 Sjam
; Start move to purge gcode
G90 ; absolute
G92 E0 ; reset e
M107 ; turn part fan off
G0 X189 F10800 ;
G0 Y0
; End move to purge gcode
M109 T0 S220
; Start Purge Gcode
M107
G91
G0 E6 F100
G90
G92 E0
G10
G0 X160 F5000
G4 P1
G0 X0 F10800
G0 Y228
G92 E0
G11
; End Purge Gcode
M38 Sjam 20000 T0; turn on jam detection for tool 0 with 20000 millisecond timeout
; End move/purge/wipe gcode

M106 S198.9
G1 Z0.600 F12000.000

; Begin wall layer v2 main wall
G0 X109.7 Y146.2 F10800   ; pos 1
G11
G0 X117.2 E2.64489795918 F425.347222222  ; pos 2
G0 Y138.7 E2.64489795918 ; pos 3
G10
G0 Y117.3 F10800  ; pos 4
G11
G0 Y109.8 E2.64489795918 F425.347222222  ; pos 5
G0 X109.7 E2.64489795918  ; pos 6
G10
G0 X78.3 F10800  ; pos 7
G11
G0 X70.8 E2.64489795918 F425.347222222  ; pos 8
G0 Y117.3 E2.64489795918  ; pos 9
G10
G0 Y138.7 F10800  ; pos 10
G11
G0 Y146.2 E2.64489795918 F425.347222222  ; pos 11
G0 X78.3 E2.64489795918  ; pos 12
G10
; End wall layer v2 main wall


; Begin wall layer v2 extra wall
G0 X109.7 Y147.55 F10800   ; pos 1
G11
G0 X118.55 E3.12097959184 F425.347222222  ; pos 2
G0 Y138.7 E3.12097959184 ; pos 3
G10
G0 Y117.3 F10800  ; pos 4
G11
G0 Y108.45 E3.12097959184 F425.347222222  ; pos 5
G0 X109.7 E3.12097959184  ; pos 6
G10
G0 X78.3 F10800  ; pos 7
G11
G0 X69.45 E3.12097959184 F425.347222222  ; pos 8
G0 Y117.3 E3.12097959184  ; pos 9
G10
G0 Y138.7 F10800  ; pos 10
G11
G0 Y147.55 E3.12097959184 F425.347222222  ; pos 11
G0 X78.3 E3.12097959184  ; pos 12
G10
; End wall layer v2 extra wall

;$ layer 1
G0 X0 Y230 F10800;
G4 P1
M38 Spic 1; take picture and tag layer number
M105; check temperatures
G1 X75.012 Y119.012 F12000.000
G11 ; unretract
M204 S200
G1 X112.988 Y119.012 E1.54234 F3600.000
G1 X112.988 Y136.988 E0.73008
G1 X75.012 Y136.988 E1.54234
